!!!!SEGMENT: pl-cz--iii-197--004_elsner-jozef--missa-c-op-22-credo.krn
!!!cenid: 18xx:263
!!!COM: Elsner, Józef
!!!COM-rismid: pe30000957
!!!CDT: 1769/06/01-1854/04/18
!!!CNT: Polish
!!!OPR: Missa C op. 22
!!!OTL: Credo
!!!OMV: 004
!!!PDT:
!!!AGN: Sacred; Mass
!!!SMS-siglum: PL-CZ
!!!SMS-shelfmark: III-197
!!!SMS-shelfwork: 001-004 M
!!!NIFC-rismid:
!!!URL-scan: http://repozytorium.nifc.pl/skany/pl-cz-nut--iii-197
!!!ONB-nifc: UWAGA: części Mszy: Kyrie, Gloria, Graduale, Credo, Offertorio, Sanctus, Benedictus, Agnus
!!!key:
**kern	**kern	**text	**dynam	**kern	**text	**dynam	**kern	**text	**dynam	**kern	**text	**dynam	**kern	**kern	**kern	**kern	**kern	**kern	**dynam	**kern	**dynam
*part12	*part11	*part11	*part11	*part10	*part10	*part10	*part9	*part9	*part9	*part8	*part8	*part8	*part7	*part6	*part5	*part4	*part3	*part2	*part2	*part1	*part1
*	*group2	*	*	*group2	*	*	*group2	*	*	*group2	*	*	*	*group1	*group1	*group1	*group1	*group1	*	*group1	*
*staff12	*staff11	*staff11	*	*staff10	*staff10	*	*staff9	*staff9	*	*staff8	*staff8	*	*staff7	*staff6	*staff5	*staff4	*staff3	*staff2	*	*staff1	*
*Iempty	*Iempty	*	*	*Iempty	*	*	*Itenor	*	*	*Itenor	*	*	*Itimpa	*Iempty	*Iempty	*Icor	*Icor	*Icor	*	*Icor	*
*I"Baſso.	*I"Baſso 2do	*	*	*I"Baſso 1mo	*	*	*I"Tenore 2do	*	*	*I"Tenore 1mo	*	*	*I"Tympano in C. G.	*I"Clarino 2do in. C.	*I"Clarino 1mo in C.	*I"Corno 2do in C.	*I"Corno 1mo in C.	*I"Corno 2do in F.	*	*I"Corno 1mo in F.	*
*I'b	*I'B II	*	*	*I'B I	*	*	*I'T II	*	*	*I'T I	*	*	*I'timp	*I'clno II in C	*I'clno I in C	*I'cor II in C	*I'cor I in C	*I'cor II in F	*	*I'cor I in F	*
*clefF4	*clefF4	*	*	*clefF4	*	*	*clefC4	*	*	*clefC4	*	*	*clefF4	*clefG2	*clefG2	*clefG2	*clefG2	*clefG2	*	*clefG2	*
*	*	*	*	*	*	*	*	*	*	*	*	*	*	*	*	*ITrd0c0	*ITrd0c0	*ITrd4c7	*	*ITrd4c7	*
*k[]	*k[]	*	*	*k[]	*	*	*k[]	*	*	*k[]	*	*	*k[]	*k[]	*k[]	*k[]	*k[]	*k[b-]	*	*k[b-]	*
*a:	*a:	*	*	*a:	*	*	*a:	*	*	*a:	*	*	*a:	*a:	*a:	*a:	*a:	*a:	*	*a:	*
*M2/2	*M2/2	*	*	*M2/2	*	*	*M2/2	*	*	*M2/2	*	*	*M2/2	*M2/2	*M2/2	*M2/2	*M2/2	*M2/2	*	*M2/2	*
*met(c|)	*met(c|)	*	*	*met(c|)	*	*	*met(c|)	*	*	*met(c|)	*	*	*met(c|)	*met(c|)	*met(c|)	*met(c|)	*met(c|)	*met(c|)	*	*met(c|)	*
=1	=1	=1	=1	=1	=1	=1	=1	=1	=1	=1	=1	=1	=1	=1	=1	=1	=1	=1	=1	=1	=1
*	*	*	*	*	*	*	*4\right	*	*	*4\right	*	*	*	*	*	*	*	*	*	*	*
!LO:TX:a:Bi:t=Allo moderato.	!LO:TX:a:Bi:t=Allo moderato.	!	!	!LO:TX:a:Bi:t=Allo moderato.	!	!	!LO:TX:a:Bi:t=Allo moderato.	!	!	!LO:TX:a:Bi:t=Allo moderato.	!	!	!LO:TX:a:Bi:t=Credo Et incarnatus, Et resurexit Tacet.	!LO:TX:a:Bi:t=Credo Et incarnatus, Et resurexit Tacet.	!LO:TX:a:Bi:t=Credo Tacet.	!LO:TX:a:t=P:problem:brak skanu	!LO:TX:a:Bi:t=Allo Moderato.	!LO:TX:a:Bi:t=Allo moderato	!	!LO:TX:a:Bi:t=Allo modto	!
!	!	!	!	!	!	!	!	!	!	!	!	!	!	!	!	!	!	!	!	!LO:TX:a:t=P:problem:wszystkie nuty mają caudy z prawej strony - oznaczone w każdym głosie	!
[1AA	(4.AA/	Cre-	.	(4.AA/	Cre-	.	(4.A\	Cre-	.	(4.A\	Cre-	.	1ryy	1ryy	1ryy	1ryy	[1cc	[1c	.	[<1a	.
*	*	*	*	*	*	*	*8\right	*	*	*8\right	*	*	*	*	*	*	*	*	*	*	*
.	8C/)	.	.	8C/)	.	.	8c\)	.	.	8c\)	.	.	.	.	.	.	.	.	.	.	.
.	4C/	-do	.	4C/	-do	.	4c\	-do	.	4c\	-do	.	.	.	.	.	.	.	.	.	.
.	4r	.	.	4r	.	.	4r	.	.	4r	.	.	.	.	.	.	.	.	.	.	.
=2	=2	=2	=2	=2	=2	=2	=2	=2	=2	=2	=2	=2	=2	=2	=2	=2	=2	=2	=2	=2	=2
*	*	*	*	*	*	*	*	*	*	*	*	*	*	*	*	*	*4\right	*	*	*4\right	*
4AA/]	4r	.	.	4r	.	.	4r	.	.	4r	.	.	1ryy	1ryy	1ryy	1ryy	4cc\]	4c/]	.	4a\]	.
*	*4\right	*	*	*4\right	*	*	*	*	*	*	*	*	*	*	*	*	*	*	*	*	*
4r	4E\	in	.	4E\	in	.	4e\	in	.	4e\	in	.	.	.	.	.	4r	4r	.	4r	.
!	!	!	!	!	!	!	!	!	!	!	!	!	!	!	!	!	!	!LO:N:vis=4	!	!	!
2r	4AA/	u-	.	4AA/	u-	.	4A\	u-	.	4A\	u-	.	.	.	.	.	2r	2r	.	2r	.
.	4C/	-num	.	4C/	-num	.	4c\	-num	.	4c\	-num	.	.	.	.	.	.	.	.	.	.
=3	=3	=3	=3	=3	=3	=3	=3	=3	=3	=3	=3	=3	=3	=3	=3	=3	=3	=3	=3	=3	=3
4r	1E	De-	.	1E	De-	.	1G#X	De-	.	1B	De-	.	1ryy	1ryy	1ryy	1ryy	4r	4r	.	4r	.
*4\right	*	*	*	*	*	*	*	*	*	*	*	*	*	*	*	*	*	*4\right	*	*	*
4E\	.	.	.	.	.	.	.	.	.	.	.	.	.	.	.	.	4ee\	4e\	.	4g#X\	.
4E\	.	.	.	.	.	.	.	.	.	.	.	.	.	.	.	.	4ee\	4e\	.	4g#\	.
4E\	.	.	.	.	.	.	.	.	.	.	.	.	.	.	.	.	4ee\	4e\	.	4g#\	.
=4	=4	=4	=4	=4	=4	=4	=4	=4	=4	=4	=4	=4	=4	=4	=4	=4	=4	=4	=4	=4	=4
4AA/	4AA/	-um	.	4E\	-um	.	4A\	-um	.	4c\	-um	.	1ryy	1ryy	1ryy	1ryy	4ee\	4e\	.	4a\	.
4r	4AA/	pat-	.	4E\	pat-	.	4A\	pat-	.	4c\	pat-	.	.	.	.	.	4r	4r	.	4r	.
!	!	!	!	!LO:SIC:l:s=-rem:v	!	!	!	!	!	!	!	!	!	!	!	!	!	!LO:TX:a:t=P:problem:pauza ćwierćnutowa poprawiona na półnutową	!	!	!
2r	4AA/	-rem	.	4E\	-em	.	4A\	-rem	.	4c\	-rem	.	.	.	.	.	2r	2r	.	2r	.
.	4AA/	om-	.	4E\	om-	.	4A\	om-	.	4c\	om-	.	.	.	.	.	.	.	.	.	.
=5	=5	=5	=5	=5	=5	=5	=5	=5	=5	=5	=5	=5	=5	=5	=5	=5	=5	=5	=5	=5	=5
*	*	*	*	*	*	*	*	*	*	*	*	*	*	*	*	*	*	*	*	*rep	*
4AA/	4AA/	-ni-	.	4E\	-ni-	.	4A\	-ni-	.	4c\	-ni-	.	1ryy	1ryy	1ryy	1ryy	4ee\	4c/	.	4a\	.
4r	4AA/	-po-	.	4E\	-po-	.	4A\	-po-	.	4c\	-po-	.	.	.	.	.	4r	4r	.	4r	.
2r	4AA/	-ten-	.	4E\	-ten-	.	4A\	-ten-	.	4c\	-ten-	.	.	.	.	.	2r	2r	.	2r	.
*	*	*	*	*8\right	*	*	*	*	*	*	*	*	*	*	*	*	*	*	*	*	*
.	8AA/	-tem	.	8E\	-tem	.	8A\	-tem	.	8c\	-tem	.	.	.	.	.	.	.	.	.	.
.	8AA/	fac-	.	8E\	fac-	.	8A\	fac-	.	8c\	fac-	.	.	.	.	.	.	.	.	.	.
*	*	*	*	*	*	*	*	*	*	*	*	*	*	*	*	*	*	*	*	*Xrep	*
=6	=6	=6	=6	=6	=6	=6	=6	=6	=6	=6	=6	=6	=6	=6	=6	=6	=6	=6	=6	=6	=6
!	!LO:LB:g=original	!	!	!LO:LB:g=original	!	!	!LO:LB:g=original	!	!	!LO:LB:g=original	!	!	!	!	!	!	!	!	!	!	!
*	*	*	*	*	*	*	*	*	*	*	*	*	*	*	*	*	*	*rep	*	*rep	*
4AA/	4AA/	-to-	.	4E\	-to-	.	4A\	-to-	.	4c\	-to-	.	1ryy	1ryy	1ryy	1ryy	4ee\	4c/	.	4a\	.
4r	4AA/	-rem	.	4E\	-rem	.	4A\	-rem	.	4c\	-rem	.	.	.	.	.	4r	4r	.	4r	.
2r	4AA/	cae-	.	4E\	cä-	.	4A\	cae-	.	4c\	Cae-	.	.	.	.	.	2r	2r	.	2r	.
.	8AA/	-li	.	8E\	-li	.	8A\	-li	.	8c\	-li	.	.	.	.	.	.	.	.	.	.
.	8AA/	et	.	8E\	et	.	8A\	et	.	8c\	et	.	.	.	.	.	.	.	.	.	.
*	*	*	*	*	*	*	*	*	*	*	*	*	*	*	*	*	*	*Xrep	*	*Xrep	*
=7	=7	=7	=7	=7	=7	=7	=7	=7	=7	=7	=7	=7	=7	=7	=7	=7	=7	=7	=7	=7	=7
!LO:TX:a:t=2.	!	!	!	!	!	!	!	!	!	!	!	!	!	!	!	!	!LO:TX:a:t=2.	!LO:TX:a:t=2.	!	!LO:TX:a:t=2.	!
0r	4AA/	ter-	.	4E\	ter-	.	4A\	ter-	.	4c\	ter-	.	1ryy	1ryy	1ryy	1ryy	0r	0r	.	0r	.
.	4AA/	-ra	.	4E\	-ra	.	4A\	-ra	.	4c\	-ra	.	.	.	.	.	.	.	.	.	.
.	4AA/	vi-	.	4E\	vi-	.	4A\	vi-	.	4c\	vi-	.	.	.	.	.	.	.	.	.	.
.	4AA/	-si-	.	4E\	-si-	.	4A\	-si-	.	4c\	-si-	.	.	.	.	.	.	.	.	.	.
=8	=8	=8	=8	=8	=8	=8	=8	=8	=8	=8	=8	=8	=8	=8	=8	=8	=8	=8	=8	=8	=8
.	4.AA/	-bi-	.	4.E\	-bi-	.	4.A\	-bi-	.	4.c\	-bi-	.	1ryy	1ryy	1ryy	1ryy	.	.	.	.	.
.	8AA/	-li-	.	8E\	-li-	.	8A\	-li-	.	8c\	-li-	.	.	.	.	.	.	.	.	.	.
.	4AA/	-um	.	4E\	-um	.	4A\	-um	.	4c\	-um	.	.	.	.	.	.	.	.	.	.
.	8AA/	et	.	8E\	et	.	8A\	et	.	8c\	om-	.	.	.	.	.	.	.	.	.	.
.	8AA/	in-	.	8E\	in-	.	8A\	in-	.	8c\	-ni-	.	.	.	.	.	.	.	.	.	.
=9	=9	=9	=9	=9	=9	=9	=9	=9	=9	=9	=9	=9	=9	=9	=9	=9	=9	=9	=9	=9	=9
!LO:LB:g=original	!	!	!	!	!	!	!	!	!	!	!	!	!	!	!	!	!	!	!	!	!
4GG/	4.GG/	-vi-	.	4.G\	-vi-	.	4.B\	-vi-	.	4.d\	-um	.	1ryy	1ryy	1ryy	1ryy	4cc\	4g\	.	4g\	.
4r	.	.	.	.	.	.	.	.	.	.	.	.	.	.	.	.	4r	4r	.	4r	.
.	8GG/	-si-	.	8G\	-si-	.	8B\	-si-	.	8d\	et	.	.	.	.	.	.	.	.	.	.
2r	4GG/	-bi-	.	4G\	-bi-	.	4B\	-bi-	.	4d\	in	.	.	.	.	.	2r	2r	.	2r	.
.	4GG/	-li-	.	4G\	-li-	.	4B\	-li-	.	4d\	u-	.	.	.	.	.	.	.	.	.	.
=10	=10	=10	=10	=10	=10	=10	=10	=10	=10	=10	=10	=10	=10	=10	=10	=10	=10	=10	=10	=10	=10
!	!	!	!	!	!	!	!	!	!	!	!	!	!	!	!	!	!LO:LB:g=original	!	!	!LO:LB:g=original	!
*	*	*	*	*2\right	*	*	*2\right	*	*	*2\right	*	*	*	*	*	*	*	*	*	*	*
4r	2.GG/	-um	.	2.G\	-um	.	2.B\	-um	.	2.d\	-num	.	1ryy	1ryy	1ryy	1ryy	4r	4r	.	4r	.
4G\	.	.	.	.	.	.	.	.	.	.	.	.	.	.	.	.	4dd\	4g\	.	4g\	.
4G\	.	.	.	.	.	.	.	.	.	.	.	.	.	.	.	.	4dd\	4g\	.	4g\	.
4G\	4r	.	.	4r	.	.	4r	.	.	4r	.	.	.	.	.	.	4dd\	4g\	.	4g\	.
=11	=11	=11	=11	=11	=11	=11	=11	=11	=11	=11	=11	=11	=11	=11	=11	=11	=11	=11	=11	=11	=11
1C	4.C\	Cre-	.	(4.C\	Cre-	.	(4.c\	Cre-	.	(4.c\	Cre-	.	1ryy	1ryy	1ryy	1ryy	1cc	1e	.	1g	.
*	*8\right	*	*	*	*	*	*	*	*	*	*	*	*	*	*	*	*	*	*	*	*
.	8E\	.	.	8E\)	.	.	8e\)	.	.	8e\)	.	.	.	.	.	.	.	.	.	.	.
.	4E\	-do	.	4E\	-do	.	4e\	-do	.	4e\	-do	.	.	.	.	.	.	.	.	.	.
.	4r	.	.	4r	.	.	4r	.	.	4r	.	.	.	.	.	.	.	.	.	.	.
=12	=12	=12	=12	=12	=12	=12	=12	=12	=12	=12	=12	=12	=12	=12	=12	=12	=12	=12	=12	=12	=12
!	!LO:LB:g=original	!	!	!LO:LB:g=original	!	!	!LO:LB:g=original	!	!	!LO:LB:g=original	!	!	!	!	!	!	!	!LO:LB:g=original	!	!	!
4C/	4r	.	.	4r	.	.	4r	.	.	4r	.	.	1ryy	1ryy	1ryy	1ryy	4cc\	4e\	.	4g\	.
4r	4G\	in	.	4G\	in	.	4g\	in	.	4g\	in	.	.	.	.	.	4r	4r	.	4r	.
2r	4C\	u-	.	4C\	u-	.	4c\	u-	.	4c\	u-	.	.	.	.	.	2r	2r	.	2r	.
.	4E\	-num	.	4E\	-num	.	4e\	-num	.	4e\	-num	.	.	.	.	.	.	.	.	.	.
=13	=13	=13	=13	=13	=13	=13	=13	=13	=13	=13	=13	=13	=13	=13	=13	=13	=13	=13	=13	=13	=13
*	*2\right	*	*	*	*	*	*	*	*	*	*	*	*	*	*	*	*	*	*	*	*
4r	2.G\	Do-	.	2.G\	Do-	.	2.B\	Do-	.	2.d\	Do-	.	1ryy	1ryy	1ryy	1ryy	4r	4r	.	4r	.
4G\	.	.	.	.	.	.	.	.	.	.	.	.	.	.	.	.	4dd\	4g\	.	4g\	.
4G\	.	.	.	.	.	.	.	.	.	.	.	.	.	.	.	.	4dd\	4g\	.	4g\	.
4G\	4G\	-mi-	.	4G\	-mi-	.	4B\	-mi-	.	4d\	-mi-	.	.	.	.	.	4dd\	4g\	.	4g\	.
=14	=14	=14	=14	=14	=14	=14	=14	=14	=14	=14	=14	=14	=14	=14	=14	=14	=14	=14	=14	=14	=14
4C/	4C/	-num	.	4G\	-num	.	4c\	-num	.	4e\	-num	.	1ryy	1ryy	1ryy	1ryy	4ee\	4c/	.	4g\	.
4r	2C/	Je-	.	2G\	Je-	.	2c\	Je-	.	2e\	Je-	.	.	.	.	.	4r	4r	.	4r	.
2r	.	.	.	.	.	.	.	.	.	.	.	.	.	.	.	.	2r	2r	.	2r	.
.	4C/	-sum	.	4G\	-sum	.	4c\	-sum	.	4e\	-sum	.	.	.	.	.	.	.	.	.	.
=15	=15	=15	=15	=15	=15	=15	=15	=15	=15	=15	=15	=15	=15	=15	=15	=15	=15	=15	=15	=15	=15
*	*	*	*	*	*	*	*	*	*	*	*	*	*	*	*	*	*	*rep	*	*rep	*
4C/	4C/	Chris-	.	4G\	Chris-	.	4c\	Chris-	.	4e\	Chris-	.	1ryy	1ryy	1ryy	1ryy	4ee\	4c/	.	4g\	.
4r	4C/	-tum	.	4G\	-tum	.	4c\	-tum	.	4e\	-tum	.	.	.	.	.	4r	4r	.	4r	.
2r	4C/	fi-	.	4G\	fi-	.	4c\	fi-	.	4e\	fi-	.	.	.	.	.	2r	2r	.	2r	.
.	8C/	-li-	.	8G\	-li-	.	8c\	-li-	.	8e\	-li-	.	.	.	.	.	.	.	.	.	.
.	8C/	-um	.	8G\	-um	.	8c\	-um	.	8e\	-um	.	.	.	.	.	.	.	.	.	.
*	*	*	*	*	*	*	*	*	*	*	*	*	*	*	*	*	*	*Xrep	*	*Xrep	*
=16	=16	=16	=16	=16	=16	=16	=16	=16	=16	=16	=16	=16	=16	=16	=16	=16	=16	=16	=16	=16	=16
*	*	*	*	*	*	*	*	*	*	*	*	*	*	*	*	*	*	*rep	*	*rep	*
4C/	4C/	De-	.	4G\	De-	.	4c\	de-	.	4e\	De-	.	1ryy	1ryy	1ryy	1ryy	4ee\	4c/	.	4g\	.
4r	4C/	-i	.	4G\	-i	.	4c\	-i	.	4e\	-i	.	.	.	.	.	4r	4r	.	4r	.
2r	4C/	u-	.	4G\	u-	.	4c\	u-	.	4e\	u-	.	.	.	.	.	2r	2r	.	2r	.
.	4C/	-ni-	.	4G\	-ni-	.	4c\	-ni-	.	4e\	-ni-	.	.	.	.	.	.	.	.	.	.
*	*	*	*	*	*	*	*	*	*	*	*	*	*	*	*	*	*	*Xrep	*	*Xrep	*
=17	=17	=17	=17	=17	=17	=17	=17	=17	=17	=17	=17	=17	=17	=17	=17	=17	=17	=17	=17	=17	=17
!LO:TX:a:t=2.	!LO:SIC:l:s=-ge-:v	!	!	!	!	!	!	!	!	!	!	!	!	!	!	!	!LO:TX:a:t=2.	!LO:TX:a:t=2.	!	!LO:TX:a:t=2.	!
0r	4C/	-ne-	.	4G\	-ge-	.	4c\	-ge-	.	4e\	-ge-	.	1ryy	1ryy	1ryy	1ryy	0r	0r	.	0r	.
.	8C/	-ni-	.	8G\	-ni-	.	8c\	-ni-	.	8e\	-ni-	.	.	.	.	.	.	.	.	.	.
.	8C/	-tum	.	8G\	-tum	.	8c\	-tum	.	8e\	-tum	.	.	.	.	.	.	.	.	.	.
.	4C/	et	.	4G\	et	.	4c\	et	.	4e\	et	.	.	.	.	.	.	.	.	.	.
.	4C/	ex	.	4G\	ex	.	4c\	ex	.	4e\	ex	.	.	.	.	.	.	.	.	.	.
=18	=18	=18	=18	=18	=18	=18	=18	=18	=18	=18	=18	=18	=18	=18	=18	=18	=18	=18	=18	=18	=18
!	!LO:LB:g=original	!	!	!LO:LB:g=original	!	!	!LO:LB:g=original	!	!	!LO:LB:g=original	!	!	!	!	!	!	!	!	!	!	!
.	4C/	pat-	.	4G\	pat-	.	4c\	pat-	.	4e\	pat-	.	1ryy	1ryy	1ryy	1ryy	.	.	.	.	.
.	4C/	-re	.	4G\	-re	.	4c\	-re	.	4e\	-re	.	.	.	.	.	.	.	.	.	.
.	4C/	na-	.	4G\	na-	.	4c\	na-	.	4e\	na-	.	.	.	.	.	.	.	.	.	.
.	4C/	-tum	.	4G\	-tum	.	4c\	-tum	.	4e\	-tum	.	.	.	.	.	.	.	.	.	.
=19	=19	=19	=19	=19	=19	=19	=19	=19	=19	=19	=19	=19	=19	=19	=19	=19	=19	=19	=19	=19	=19
4C/	4C/	an-	.	4G\	an-	.	4c\	an-	.	4e\	an-	.	1ryy	1ryy	1ryy	1ryy	4ee\	4c/	.	4g\	.
4r	4C/	-te	.	4G\	-te	.	4c\	-te	.	4e\	-te	.	.	.	.	.	4r	4r	.	4r	.
2r	4C/	om-	.	4G\	om-	.	4c\	om-	.	4e\	om-	.	.	.	.	.	2r	2r	.	2r	.
.	8C/	-ni-	.	8G\	-ni-	.	8c\	-ni-	.	8e\	-ni-	.	.	.	.	.	.	.	.	.	.
.	8C/	-a	.	8G\	-a	.	8c\	-a	.	8e\	-a	.	.	.	.	.	.	.	.	.	.
=20	=20	=20	=20	=20	=20	=20	=20	=20	=20	=20	=20	=20	=20	=20	=20	=20	=20	=20	=20	=20	=20
!	!	!	!	!	!	!	!	!	!	!	!	!	!	!	!	!	!	!	!	!LO:LB:g=original	!
4r	2.BB/	sae-	.	2.G\	sae-	.	2.d\	sae-	.	2.f\	Sae-	.	1ryy	1ryy	1ryy	1ryy	4r	4r	.	4r	.
4BB/	.	.	.	.	.	.	.	.	.	.	.	.	.	.	.	.	4dd\	4f\	.	4g\	.
4BB/	.	.	.	.	.	.	.	.	.	.	.	.	.	.	.	.	4dd\	4f\	.	4g\	.
4BB/	4BB/	-cu-	.	4G\	-cu-	.	4d\	-cu-	.	4f\	-cu-	.	.	.	.	.	4dd\	4f\	.	4g\	.
=21	=21	=21	=21	=21	=21	=21	=21	=21	=21	=21	=21	=21	=21	=21	=21	=21	=21	=21	=21	=21	=21
!	!	!	!	!	!	!	!	!	!	!	!	!	!	!	!	!	!LO:LB:g=original	!	!	!	!
2C/	2.C/	-la	.	2.G\	-la	.	2.c\	-la	.	2.e\	-la	.	1ryy	1ryy	1ryy	1ryy	4cc\	4e\	.	4g\	.
*	*	*	*	*	*	*	*	*	*	*	*	*	*	*	*	*	*8\right	*8\right	*	*8\right	*
.	.	.	.	.	.	.	.	.	.	.	.	.	.	.	.	.	8ee\L	8e\L	.	8e\L	.
.	.	.	.	.	.	.	.	.	.	.	.	.	.	.	.	.	8ee\J	8e\J	.	8e\J	.
2r	.	.	.	.	.	.	.	.	.	.	.	.	.	.	.	.	4ee\	4e\	.	4e\	.
.	4r	.	.	4r	.	.	4r	.	.	4r	.	.	.	.	.	.	4ee\	4e\	.	4e\	.
=22	=22	=22	=22	=22	=22	=22	=22	=22	=22	=22	=22	=22	=22	=22	=22	=22	=22	=22	=22	=22	=22
4E\	4E\	lu-	.	4G#X\	lu-	.	4B\	lu-	.	4e\	lu-	.	1ryy	1ryy	1ryy	1ryy	4ee\	4e\	.	4e\	.
4r	8E\	-men	.	8G#\	-men	.	8B\	-men	.	8e\	-men	.	.	.	.	.	4r	4r	.	4r	.
.	8E\	de	.	8G#\	de	.	8B\	de	.	8e\	de	.	.	.	.	.	.	.	.	.	.
2r	4E\	lu-	.	4G#\	lu-	.	4B\	lu-	.	4e\	lu-	.	.	.	.	.	2r	2r	.	2r	.
.	8E\	-mi-	.	8G#\	-mi-	.	8B\	-mi-	.	8e\	-mi-	.	.	.	.	.	.	.	.	.	.
.	8E\	-ne	.	8G#\	-ne	.	8B\	-ne	.	8e\	-ne	.	.	.	.	.	.	.	.	.	.
=23	=23	=23	=23	=23	=23	=23	=23	=23	=23	=23	=23	=23	=23	=23	=23	=23	=23	=23	=23	=23	=23
!	!	!	!	!LO:LB:g=original	!	!	!	!	!	!	!	!	!	!	!	!	!	!LO:LB:g=original	!	!	!
*	*	*	*	*	*	*	*	*	*	*	*	*	*	*	*	*	*	*	*	*rep	*
4E\	4E\	de-	.	4G#X\	De-	.	4B\	de-	.	4e\	De-	.	1ryy	1ryy	1ryy	1ryy	4ee\	4e\	.	4e\	.
4r	8E\	-um	.	8G#\	-um	.	8B\	-um	.	8e\	-um	.	.	.	.	.	4r	4r	.	4r	.
.	8E\	de	.	8G#\	de	.	8B\	de	.	8e\	de	.	.	.	.	.	.	.	.	.	.
!	!	!	!	!	!	!	!LO:LB:g=original	!	!	!	!	!	!	!	!	!	!	!	!	!	!
2r	4E\	De-	.	4G#\	De-	.	4B\	De-	.	4e\	De-	.	.	.	.	.	2r	2r	.	2r	.
.	4E\	-o	.	4G#\	-o	.	4B\	-o	.	4e\	-o	.	.	.	.	.	.	.	.	.	.
*	*	*	*	*	*	*	*	*	*	*	*	*	*	*	*	*	*	*	*	*Xrep	*
=24	=24	=24	=24	=24	=24	=24	=24	=24	=24	=24	=24	=24	=24	=24	=24	=24	=24	=24	=24	=24	=24
!	!LO:LB:g=original	!	!	!	!	!	!	!	!	!LO:LB:g=original	!	!	!	!	!	!	!	!	!	!	!
*	*	*	*	*	*	*	*	*	*	*	*	*	*	*	*	*	*	*rep	*	*rep	*
4E\	4E\	de-	.	4G#X\	De-	.	4B\	de-	.	4e\	De-	.	1ryy	1ryy	1ryy	1ryy	4ee\	4e\	.	4e\	.
4r	4E\	-um	.	4G#\	-um	.	4B\	-um	.	4e\	-um	.	.	.	.	.	4r	4r	.	4r	.
2r	4E\	ve-	.	4G#\	ve-	.	4B\	ve-	.	4e\	ve-	.	.	.	.	.	2r	2r	.	2r	.
.	8E\	-rum	.	8G#\	-rum	.	8B\	-rum	.	8e\	-rum	.	.	.	.	.	.	.	.	.	.
.	8E\	de	.	8G#\	de	.	8B\	de	.	8e\	de	.	.	.	.	.	.	.	.	.	.
*	*	*	*	*	*	*	*	*	*	*	*	*	*	*	*	*	*	*Xrep	*	*Xrep	*
=25	=25	=25	=25	=25	=25	=25	=25	=25	=25	=25	=25	=25	=25	=25	=25	=25	=25	=25	=25	=25	=25
!LO:TX:a:t=1.	!	!	!	!	!	!	!	!	!	!	!	!	!	!	!	!	!LO:TX:a:t=1.	!LO:TX:a:t=1.	!	!LO:TX:a:t=1	!
1r	4E\	de-	.	4G#X\	de-	.	4B\	De-	.	4e\	De-	.	1ryy	1ryy	1ryy	1ryy	1r	1r	.	1r	.
.	4E\	-o	.	4G#\	-o	.	4B\	-o	.	4e\	-o	.	.	.	.	.	.	.	.	.	.
.	4E\	ve-	.	4G#\	ve-	.	4B\	ve-	.	4e\	ve-	.	.	.	.	.	.	.	.	.	.
.	4E\	-ro	.	4G#\	-ro	.	4B\	-ro	.	4e\	-ro	.	.	.	.	.	.	.	.	.	.
=26	=26	=26	=26	=26	=26	=26	=26	=26	=26	=26	=26	=26	=26	=26	=26	=26	=26	=26	=26	=26	=26
4D\	4.D\	ge-	.	4.A\	ge-	.	4.d\	ge-	.	4.f\	ge-	.	1ryy	1ryy	1ryy	1ryy	4ff\	4f\	.	4a\	.
4r	.	.	.	.	.	.	.	.	.	.	.	.	.	.	.	.	4r	4r	.	4r	.
.	8D\	-ni-	.	8A\	-ni-	.	8d\	-ni-	.	8f\	-ni-	.	.	.	.	.	.	.	.	.	.
2r	4D\	-tum	.	4A\	-tum	.	4d\	-tum	.	4f\	-tum	.	.	.	.	.	2r	2r	.	2r	.
.	4D\	non	.	4A\	non	.	4d\	non	.	4f\	non	.	.	.	.	.	.	.	.	.	.
=27	=27	=27	=27	=27	=27	=27	=27	=27	=27	=27	=27	=27	=27	=27	=27	=27	=27	=27	=27	=27	=27
*	*	*	*	*	*	*	*	*	*	*	*	*	*	*	*	*	*	*rep	*	*rep	*
4D\	4D\	fac-	.	4A\	fac-	.	4d\	fac-	.	4f\	fac-	.	1ryy	1ryy	1ryy	1ryy	4ff\	4f\	.	4a\	.
4r	4D\	-tum	.	4A\	-tum	.	4d\	-tum	.	4f\	-tum	.	.	.	.	.	4r	4r	.	4r	.
2r	4D\	con-	.	4A\	con-	.	4d\	con-	.	4f\	con-	.	.	.	.	.	2r	2r	.	2r	.
.	4D\	-sub-	.	4A\	-sub-	.	4d\	-sub-	.	4f\	-sub-	.	.	.	.	.	.	.	.	.	.
*	*	*	*	*	*	*	*	*	*	*	*	*	*	*	*	*	*	*Xrep	*	*Xrep	*
=28	=28	=28	=28	=28	=28	=28	=28	=28	=28	=28	=28	=28	=28	=28	=28	=28	=28	=28	=28	=28	=28
!	!	!	!	!LO:LB:g=original	!	!	!	!	!	!	!	!	!	!	!	!	!	!	!	!	!
*rep	*	*	*	*	*	*	*	*	*	*	*	*	*	*	*	*	*	*rep	*	*rep	*
4D\	4D\	-stan-	.	4A\	-stan-	.	4d\	-stan-	.	4f\	-stan-	.	1ryy	1ryy	1ryy	1ryy	4ff\	4f\	.	4a\	.
4r	4D\	-ti-	.	4A\	-ti-	.	4d\	-ti-	.	4f\	-ti-	.	.	.	.	.	4r	4r	.	4r	.
2r	4D\	-a-	.	4A\	-a-	.	4d\	-a-	.	4f\	-a-	.	.	.	.	.	2r	2r	.	2r	.
.	4D\	-lem	.	4A\	-lem	.	4d\	-lem	.	4f\	-lem	.	.	.	.	.	.	.	.	.	.
*Xrep	*	*	*	*	*	*	*	*	*	*	*	*	*	*	*	*	*	*Xrep	*	*Xrep	*
=29	=29	=29	=29	=29	=29	=29	=29	=29	=29	=29	=29	=29	=29	=29	=29	=29	=29	=29	=29	=29	=29
!LO:LB:g=original	!	!	!	!	!	!	!LO:LB:g=original	!	!	!LO:LB:g=original	!	!	!	!	!	!	!	!	!	!	!
!LO:TX:a:t=1.	!	!	!	!	!	!	!	!	!	!	!	!	!	!	!	!	!LO:TX:a:t=1.	!LO:TX:a:t=1	!	!LO:TX:a:t=1.	!
1r	4D\	pat-	.	4A\	pat-	.	4d\	pat-	.	4f\	pat-	.	1ryy	1ryy	1ryy	1ryy	1r	1r	.	1r	.
.	4D\	-ri	.	4A\	-ri	.	4d\	-ri	.	4f\	-ri	.	.	.	.	.	.	.	.	.	.
.	4D\	per	.	4A\	per	.	4d\	per	.	4f\	per	.	.	.	.	.	.	.	.	.	.
.	4D\	quem	.	4A\	quem	.	4d\	quem	.	4f\	quem	.	.	.	.	.	.	.	.	.	.
=30	=30	=30	=30	=30	=30	=30	=30	=30	=30	=30	=30	=30	=30	=30	=30	=30	=30	=30	=30	=30	=30
!	!LO:LB:g=original	!	!	!	!	!	!	!	!	!	!	!	!	!	!	!	!	!	!	!LO:LB:g=original	!
4.C/	4.C/	om-	.	4.A\	om-	.	4.A\	om-	.	4.e\	om-	.	1ryy	1ryy	1ryy	1ryy	4.ee\	1e	.	[1a	.
8BB/	8BB/	-ni-	.	8A\	-ni-	.	8A\	-ni-	.	8d\	-ni-	.	.	.	.	.	8dd\	.	.	.	.
*	*	*	*	*	*	*	*	*	*	*	*	*	*	*	*	*	*2\right	*	*	*	*
2AA/	2AA/	-a	.	2A\	-a	.	2A\	-a	.	2c\	-a	.	.	.	.	.	2cc\	.	.	.	.
=31	=31	=31	=31	=31	=31	=31	=31	=31	=31	=31	=31	=31	=31	=31	=31	=31	=31	=31	=31	=31	=31
!	!	!	!	!	!	!	!	!	!	!	!	!	!	!	!	!	!LO:LB:g=original	!	!	!	!
*	*	*	*	*	*	*	*	*	*	*	*	*	*	*	*	*	*	*	*	*2\right	*
1E	2E\	fac-	.	2E\	fac-	.	2A\	fac-	.	2B\	fac-	.	1ryy	1ryy	1ryy	1ryy	1b	4r	.	2a\]	.
.	.	.	.	.	.	.	.	.	.	.	.	.	.	.	.	.	.	8e\L	.	.	.
.	.	.	.	.	.	.	.	.	.	.	.	.	.	.	.	.	.	8e\J	.	.	.
.	2E\	-ta	.	2E\	-ta	.	2G#X\	-ta	.	2B\	-ta	.	.	.	.	.	.	4e\	.	2g#X\	.
.	.	.	.	.	.	.	.	.	.	.	.	.	.	.	.	.	.	4e\	.	.	.
=32	=32	=32	=32	=32	=32	=32	=32	=32	=32	=32	=32	=32	=32	=32	=32	=32	=32	=32	=32	=32	=32
4AA/	4AA/	sunt	.	4C\	sunt	.	4A\	sunt	.	4A\	sunt	.	1ryy	1ryy	1ryy	1ryy	4cc\	4c/	.	4a\	.
4r	4AA/	qui	.	4E\	qui	.	4A\	qui	.	4c\	qui	.	.	.	.	.	4r	4r	.	4r	.
2r	4AA/	p[ro]-	.	4E\	p[ro]-	.	4A\	p[ro]-	.	4c\	p[ro]-	.	.	.	.	.	2r	2r	.	2r	.
.	4AA/	-pter	.	4E\	-pter nos	.	4A\	-pter nos	.	4c\	-pter	.	.	.	.	.	.	.	.	.	.
=33	=33	=33	=33	=33	=33	=33	=33	=33	=33	=33	=33	=33	=33	=33	=33	=33	=33	=33	=33	=33	=33
*	*	*	*	*	*	*	*	*	*	*	*	*	*	*	*	*	*	*rep	*	*rep	*
4AA/	4.AA/	ho-	.	4.E\	ho-	.	4.A\	ho-	.	4.c\	ho-	.	1ryy	1ryy	1ryy	1ryy	4cc\	4c/	.	4a\	.
4r	.	.	.	.	.	.	.	.	.	.	.	.	.	.	.	.	4r	4r	.	4r	.
.	8AA/	-mi-	.	8E\	-mi-	.	8A\	-mi-	.	8c\	-mi-	.	.	.	.	.	.	.	.	.	.
!	!LO:SIC:l:s=-nes:v	!	!	!	!	!	!	!	!	!	!	!	!	!	!	!	!	!	!	!	!
2r	4AA/	-net	.	4E\	-nes	.	4A\	-nes	.	4c\	-nes	.	.	.	.	.	2r	2r	.	2r	.
.	4AA/	et	.	4E\	et	.	4A\	et	.	4c\	et	.	.	.	.	.	.	.	.	.	.
*	*	*	*	*	*	*	*	*	*	*	*	*	*	*	*	*	*	*Xrep	*	*Xrep	*
=34	=34	=34	=34	=34	=34	=34	=34	=34	=34	=34	=34	=34	=34	=34	=34	=34	=34	=34	=34	=34	=34
*rep	*	*	*	*	*	*	*	*	*	*	*	*	*	*	*	*	*	*rep	*	*rep	*
4AA/	4AA/	p[ro]-	.	4E\	p[ro]-	.	4A\	p[ro]-	.	4c\	p[ro]-	.	1ryy	1ryy	1ryy	1ryy	4cc\	4c/	.	4a\	.
4r	4AA/	-pter	.	4E\	-pter	.	4A\	-pter	.	4c\	-pter	.	.	.	.	.	4r	4r	.	4r	.
2r	4AA/	nos-	.	4E\	nos-	.	4A\	nos-	.	4c\	nos-	.	.	.	.	.	2r	2r	.	2r	.
.	8AA/	-tram	.	8E\	-tram	.	8A\	-tram	.	8c\	-tram	.	.	.	.	.	.	.	.	.	.
.	8AA/	sa-	.	8E\	sa-	.	8A\	sa-	.	8c\	sa-	.	.	.	.	.	.	.	.	.	.
*Xrep	*	*	*	*	*	*	*	*	*	*	*	*	*	*	*	*	*	*Xrep	*	*Xrep	*
=35	=35	=35	=35	=35	=35	=35	=35	=35	=35	=35	=35	=35	=35	=35	=35	=35	=35	=35	=35	=35	=35
!	!	!	!	!LO:LB:g=original	!	!	!LO:PB:g=original	!	!	!LO:LB:g=original	!	!	!	!	!	!	!	!LO:LB:g=original	!	!	!
4r	4AA/	-lu-	.	4E\	-lu-	.	4A\	-lu-	.	4c\	-lu-	.	1ryy	1ryy	1ryy	1ryy	4r	4r	.	4r	.
4AA/	4AA/	-tem	.	4E\	-tem	.	4A\	-tem	.	4c\	-tem	.	.	.	.	.	8cc\L	8c/L	.	8a\L	.
.	.	.	.	.	.	.	.	.	.	.	.	.	.	.	.	.	8cc\J	8c/J	.	8a\J	.
4AA/	4r	.	.	4r	.	.	4r	.	.	4r	.	.	.	.	.	.	4cc\	4c/	.	4a\	.
4r	4c\	de-	.	4c\	des-	.	(4c\	des-	.	4c\	des-	.	.	.	.	.	4r	4r	.	4r	.
=36	=36	=36	=36	=36	=36	=36	=36	=36	=36	=36	=36	=36	=36	=36	=36	=36	=36	=36	=36	=36	=36
!	!LO:LB:g=original	!	!	!	!	!	!	!	!	!	!	!	!	!	!	!	!	!	!	!	!
!LO:TX:a:t=29	!	!	!	!	!	!	!	!	!	!	!	!	!	!	!	!	!LO:TX:a:t=11.	!LO:TX:a:t=11	!	!LO:TX:a:t=11	!
1r	(4.c\	-scen-	.	(4.c\	-cen-	.	4.c\	-cen-	.	(4.c\	-cen-	.	1ryy	1ryy	1ryy	1ryy	1r	1r	.	1r	.
.	8A\)	.	.	8A\)	.	.	8A\)	.	.	8A\)	.	.	.	.	.	.	.	.	.	.	.
.	4A\	-dit	.	4A\	-dit	.	4A\	-dit	.	4A\	-dit	.	.	.	.	.	.	.	.	.	.
.	4A\	des-	.	4A\	des-	.	4A\	des-	.	4A\	des-	.	.	.	.	.	.	.	.	.	.
=37	=37	=37	=37	=37	=37	=37	=37	=37	=37	=37	=37	=37	=37	=37	=37	=37	=37	=37	=37	=37	=37
1r	(4.A\	-cen-	.	(4.A\	-cen-	.	(4.A\	-cen-	.	(4.A\	-cen-	.	1ryy	1ryy	1ryy	1ryy	1r	1r	.	1r	.
.	8F\)	.	.	8F\)	.	.	8F\)	.	.	8F\)	.	.	.	.	.	.	.	.	.	.	.
.	4F\	-dit	.	4F\	-dit	.	4F\	-dit	.	4F/	-dit	.	.	.	.	.	.	.	.	.	.
.	4F#X\	de	.	4F#X\	de	.	4F#X\	de	.	4F#X/	de	.	.	.	.	.	.	.	.	.	.
=38	=38	=38	=38	=38	=38	=38	=38	=38	=38	=38	=38	=38	=38	=38	=38	=38	=38	=38	=38	=38	=38
1r	2.G\	Cae-	.	2.G\	Cae-	.	2.G/	Cae-	.	2.G/	cae-	.	1ryy	1ryy	1ryy	1ryy	1r	1r	.	1r	.
.	4E\	.	.	4E\	.	.	4E/	.	.	4E/	.	.	.	.	.	.	.	.	.	.	.
=39	=39	=39	=39	=39	=39	=39	=39	=39	=39	=39	=39	=39	=39	=39	=39	=39	=39	=39	=39	=39	=39
1r	2C/	-lis.	.	2C/	-lis.	.	2C/	-lis.	.	2C/	-lis.	.	1ryy	1ryy	1ryy	1ryy	1r	1r	.	1r	.
.	4r	.	.	4r	.	.	4r	.	.	4r	.	.	.	.	.	.	.	.	.	.	.
.	4C/	Et	.	4C/	Et	.	4c\	Et	.	4c\	Et	.	.	.	.	.	.	.	.	.	.
=40	=40	=40	=40	=40	=40	=40	=40	=40	=40	=40	=40	=40	=40	=40	=40	=40	=40	=40	=40	=40	=40
1r	1F	in-	.	1F	in-	.	1A	in-	.	1c	in-	.	1ryy	1ryy	1ryy	1ryy	1r	1r	.	1r	.
=41	=41	=41	=41	=41	=41	=41	=41	=41	=41	=41	=41	=41	=41	=41	=41	=41	=41	=41	=41	=41	=41
!	!	!	!	!	!	!	!LO:SIC:s=1B-:v	!	!	!	!	!	!	!	!	!	!	!	!	!	!
1r	1BB-X	-car-	.	1F	-car-	.	1B	-car-	.	1d	-car-	.	1ryy	1ryy	1ryy	1ryy	1r	1r	.	1r	.
=42	=42	=42	=42	=42	=42	=42	=42	=42	=42	=42	=42	=42	=42	=42	=42	=42	=42	=42	=42	=42	=42
!	!	!	!	!LO:LB:g=original	!	!	!	!	!	!LO:PB:g=original	!	!	!	!	!	!	!	!	!	!	!
1r	2.C/	-na-	.	2.E\	-na-	.	2.G/	-na-	.	2.c\	-na-	.	1ryy	1ryy	1ryy	1ryy	1r	1r	.	1r	.
.	4C/	-tus	.	4E\	-tus	.	4G/	-tus	.	4B-X\	-tus	.	.	.	.	.	.	.	.	.	.
=43	=43	=43	=43	=43	=43	=43	=43	=43	=43	=43	=43	=43	=43	=43	=43	=43	=43	=43	=43	=43	=43
!	!	!	!	!	!	!	!LO:LB:g=original	!	!	!	!	!	!	!	!	!	!	!	!	!	!
1r	2D\	est	.	2F\	est	.	2F/	est	.	2A\	est	.	1ryy	1ryy	1ryy	1ryy	1r	1r	.	1r	.
.	2D\	de	.	2F\	de	.	2F/	de	.	2A\	de	.	.	.	.	.	.	.	.	.	.
=44	=44	=44	=44	=44	=44	=44	=44	=44	=44	=44	=44	=44	=44	=44	=44	=44	=44	=44	=44	=44	=44
!	!LO:LB:g=original	!	!	!	!	!	!	!	!	!	!	!	!	!	!	!	!	!	!	!	!
1r	(2DL-X\	Spi-	.	(2E\	spi-	.	(2G/	spi-	.	2B-X\	spi-	.	1ryy	1ryy	1ryy	1ryy	1r	1r	.	1r	.
.	2C\)	.	.	2F\)	.	.	2F/)	.	.	(2A\	-ri-	.	.	.	.	.	.	.	.	.	.
=45	=45	=45	=45	=45	=45	=45	=45	=45	=45	=45	=45	=45	=45	=45	=45	=45	=45	=45	=45	=45	=45
1r	2BB-X/	-ri-	.	2F\	-ri-	.	2F/	-ri-	.	2d\	.	.	1ryy	1ryy	1ryy	1ryy	1r	1r	.	1r	.
.	2AA/	-tu	.	2F\	-tu	.	2c\	-tu	.	4c\)	.	.	.	.	.	.	.	.	.	.	.
.	.	.	.	.	.	.	.	.	.	4f\	-tu	.	.	.	.	.	.	.	.	.	.
=46	=46	=46	=46	=46	=46	=46	=46	=46	=46	=46	=46	=46	=46	=46	=46	=46	=46	=46	=46	=46	=46
1r	1GG	sanc-	.	1G	sanc-	.	1B-X	sanc-	.	(2.f\	sanc-	.	1ryy	1ryy	1ryy	1ryy	1r	1r	.	1r	.
.	.	.	.	.	.	.	.	.	.	4e\)	.	.	.	.	.	.	.	.	.	.	.
=47	=47	=47	=47	=47	=47	=47	=47	=47	=47	=47	=47	=47	=47	=47	=47	=47	=47	=47	=47	=47	=47
!	!	!	!	!	!	!	!LO:SIC:s=2B-:v	!	!	!	!	!	!	!	!	!	!	!	!LO:DY:rj	!	!
1r	2GG/	-to	.	2G\	-to	.	2B\	-to.	.	2e\	-to.	.	1ryy	1ryy	1ryy	1ryy	4r	4r	p	4r	p
.	.	.	.	.	.	.	.	.	.	.	.	.	.	.	.	.	8cc\L	8c/L	.	8c/L	.
.	.	.	.	.	.	.	.	.	.	.	.	.	.	.	.	.	8cc\J	8c/J	.	8c/J	.
.	2r	.	.	2r	.	.	2r	.	.	2r	.	.	.	.	.	.	4cc\	4c/	.	4c/	.
.	.	.	.	.	.	.	.	.	.	.	.	.	.	.	.	.	4cc\	4c/	.	4c/	.
=48	=48	=48	=48	=48	=48	=48	=48	=48	=48	=48	=48	=48	=48	=48	=48	=48	=48	=48	=48	=48	=48
!	!	!	!LO:DY:rj:t=p:	!	!	!	!	!	!	!	!	!	!	!	!	!	!	!	!	!	!
1r	2.C/	Ex	p	2.G\	Ex	.	2.B-X\	Ex	.	2.e\	Ex	.	1ryy	1ryy	1ryy	1ryy	4cc\	4c/	.	4B-/	.
.	.	.	.	.	.	.	.	.	.	.	.	.	.	.	.	.	4r	4r	.	4r	.
.	.	.	.	.	.	.	.	.	.	.	.	.	.	.	.	.	2r	2r	.	2r	.
.	4C/	Ma-	.	4G\	Ma-	.	4B-\	Ma-	.	4e\	Ma-	.	.	.	.	.	.	.	.	.	.
=49	=49	=49	=49	=49	=49	=49	=49	=49	=49	=49	=49	=49	=49	=49	=49	=49	=49	=49	=49	=49	=49
!	!	!	!	!	!	!	!	!	!	!	!	!	!	!	!	!	!LO:TX:a:t=16	!LO:TX:a:t=16	!	!LO:TX:a:t=16	!
1r	(2.D\	-ri-	.	(2.F\	-ri-	.	2.A\	-ri-	.	(2.f\	-ri-	.	1ryy	1ryy	1ryy	1ryy	1r	1r	.	1r	.
.	4BB-X\)	.	.	4F\)	.	.	4B-X\	-a	.	4d\)	-a	.	.	.	.	.	.	.	.	.	.
=50	=50	=50	=50	=50	=50	=50	=50	=50	=50	=50	=50	=50	=50	=50	=50	=50	=50	=50	=50	=50	=50
1r	1BB-X	-a	.	1F	-a	.	1B-X	.	.	1d	.	.	1ryy	1ryy	1ryy	1ryy	1r	1r	.	1r	.
=51	=51	=51	=51	=51	=51	=51	=51	=51	=51	=51	=51	=51	=51	=51	=51	=51	=51	=51	=51	=51	=51
!	!	!	!	!LO:LB:g=original	!	!	!	!	!	!LO:LB:g=original	!	!	!	!	!	!	!	!	!	!	!
!	!	!	!	!	!	!	!LO:N:vis=2	!	!	!	!	!	!	!	!	!	!	!	!	!	!
1r	2.AA/	Vir-	.	2.F#X\	Vir-	.	2.c\	Vir-	.	2.d\	Vir-	.	1ryy	1ryy	1ryy	1ryy	1r	1r	.	1r	.
.	4AA/	-gi-	.	4F#\	-gi-	.	4c\	-gi-	.	4d\	-gi-	.	.	.	.	.	.	.	.	.	.
=52	=52	=52	=52	=52	=52	=52	=52	=52	=52	=52	=52	=52	=52	=52	=52	=52	=52	=52	=52	=52	=52
!	!	!	!	!	!	!	!LO:LB:g=original	!	!	!	!	!	!	!	!	!	!	!	!	!	!
1r	2GG/	-ne	.	2G\	-ne	.	2B-X\	-ne	.	2d\	-ne	.	1ryy	1ryy	1ryy	1ryy	1r	1r	.	1r	.
.	2BB-X/	et	.	2G\	et	.	2B-\	et	.	2d\	et	.	.	.	.	.	.	.	.	.	.
=53	=53	=53	=53	=53	=53	=53	=53	=53	=53	=53	=53	=53	=53	=53	=53	=53	=53	=53	=53	=53	=53
!	!LO:PB:g=original	!	!	!	!	!	!	!	!	!	!	!	!	!	!	!	!	!	!	!	!
1r	2C/	ho-	.	2C/	ho-	.	2A\	ho-	.	2c\	ho-	.	1ryy	1ryy	1ryy	1ryy	1r	1r	.	1r	.
.	2C/	-mo	.	2C/	-mo	.	2G\	-mo	.	2B-X\	-mo	.	.	.	.	.	.	.	.	.	.
=54	=54	=54	=54	=54	=54	=54	=54	=54	=54	=54	=54	=54	=54	=54	=54	=54	=54	=54	=54	=54	=54
1r	2C/	fac-	.	2C/	fac-	.	2F/	fac-	.	2A^\	fac-	.	1ryy	1ryy	1ryy	1ryy	1r	1r	.	1r	.
.	2C/	-tus	.	2C/	-tus	.	2F/	-tus	.	2G\	-tus	.	.	.	.	.	.	.	.	.	.
=55	=55	=55	=55	=55	=55	=55	=55	=55	=55	=55	=55	=55	=55	=55	=55	=55	=55	=55	=55	=55	=55
1r	1F	est	.	1F	est.	.	1F	est	.	1F	est.	.	1ryy	1ryy	1ryy	1ryy	1r	1r	.	1r	.
=56	=56	=56	=56	=56	=56	=56	=56	=56	=56	=56	=56	=56	=56	=56	=56	=56	=56	=56	=56	=56	=56
1r	2.F\	cru-	.	2.F\	cru-	.	2.F/	cru-	.	2.F/	Cru-	.	1ryy	1ryy	1ryy	1ryy	1r	1r	.	1r	.
.	4E\	-ci-	.	4E\	-ci-	.	4E/	-ci-	.	4E/	-ci-	.	.	.	.	.	.	.	.	.	.
=57	=57	=57	=57	=57	=57	=57	=57	=57	=57	=57	=57	=57	=57	=57	=57	=57	=57	=57	=57	=57	=57
1r	2.G\	-fi-	.	2.G\	-fi-	.	2.G/	-fi-	.	2.G/	-fi-	.	1ryy	1ryy	1ryy	1ryy	1r	1r	.	1r	.
.	4F\	-xus	.	4F\	-xus	.	4F/	-xus	.	4F/	-xus	.	.	.	.	.	.	.	.	.	.
=58	=58	=58	=58	=58	=58	=58	=58	=58	=58	=58	=58	=58	=58	=58	=58	=58	=58	=58	=58	=58	=58
!	!	!	!	!LO:PB:g=original	!	!	!	!	!	!	!	!	!	!	!	!	!	!	!	!	!
1r	2.D\	e-	.	2.D\	e-	.	2.F/	e-	.	2.B-X\	e-	.	1ryy	1ryy	1ryy	1ryy	1r	1r	.	1r	.
.	4C\	-ti-	.	4E\	-ti-	.	4G/	-ti-	.	4B-\	-ti-	.	.	.	.	.	.	.	.	.	.
=59	=59	=59	=59	=59	=59	=59	=59	=59	=59	=59	=59	=59	=59	=59	=59	=59	=59	=59	=59	=59	=59
1r	2F\	-am	.	2F\	-am	.	2F/	-am	.	2A\	-am	.	1ryy	1ryy	1ryy	1ryy	1r	1r	.	1r	.
.	2BB-X/	pro	.	2F\	pro	.	2B-X\	pro	.	2d\	pro	.	.	.	.	.	.	.	.	.	.
=60	=60	=60	=60	=60	=60	=60	=60	=60	=60	=60	=60	=60	=60	=60	=60	=60	=60	=60	=60	=60	=60
!	!	!	!	!	!	!	!	!	!	!LO:LB:g=original	!	!	!	!	!	!	!	!	!	!	!
1r	2BB-X/	no-	.	2F\	no-	.	2B-X\	no-	.	2d\	no-	.	1ryy	1ryy	1ryy	1ryy	1r	1r	.	1r	.
.	4BB-/	-bis	.	4F\	-bis	.	4B-\	-bis	.	4d\	-bis	.	.	.	.	.	.	.	.	.	.
.	4BB-/	sub	.	4F\	sub	.	4B-\	sub	.	4d\	sub	.	.	.	.	.	.	.	.	.	.
=61	=61	=61	=61	=61	=61	=61	=61	=61	=61	=61	=61	=61	=61	=61	=61	=61	=61	=61	=61	=61	=61
!	!LO:LB:g=original	!	!	!	!	!	!LO:LB:g=original	!	!	!	!	!	!	!	!	!	!	!	!	!	!
1r	2.BB-X/	pon-	.	2.F\	pon-	.	2.B-X\	pon-	.	2.d\	pon-	.	1ryy	1ryy	1ryy	1ryy	1r	1r	.	1r	.
.	4BB-/	-ti-	.	4F\	-ti-	.	4B-\	-ti-	.	4d\	-ti-	.	.	.	.	.	.	.	.	.	.
=62	=62	=62	=62	=62	=62	=62	=62	=62	=62	=62	=62	=62	=62	=62	=62	=62	=62	=62	=62	=62	=62
1r	2BB-X/	-o	.	2F\	-o	.	2B-X\	-o	.	2d\	-o	.	1ryy	1ryy	1ryy	1ryy	1r	1r	.	1r	.
.	2BB-/	pi-	.	2F\	pi-	.	2B-\	pi-	.	2d\	pi-	.	.	.	.	.	.	.	.	.	.
=63	=63	=63	=63	=63	=63	=63	=63	=63	=63	=63	=63	=63	=63	=63	=63	=63	=63	=63	=63	=63	=63
1r	2BB-X/	-la-	.	2F\	-la-	.	2B-X\	-la-	.	2d\	-la-	.	1ryy	1ryy	1ryy	1ryy	1r	1r	.	1r	.
.	4BB-/	-to.	.	4F\	-to	.	4B-\	-to.	.	4d\	-ta	.	.	.	.	.	.	.	.	.	.
.	4r	.	.	4r	.	.	4r	.	.	4r	.	.	.	.	.	.	.	.	.	.	.
=64	=64	=64	=64	=64	=64	=64	=64	=64	=64	=64	=64	=64	=64	=64	=64	=64	=64	=64	=64	=64	=64
1r	1E-X^	paſ-	.	1F^	paſ-	.	1A^	pas-	.	1c^	pas-	.	1ryy	1ryy	1ryy	1ryy	1r	1r	.	1r	.
=65	=65	=65	=65	=65	=65	=65	=65	=65	=65	=65	=65	=65	=65	=65	=65	=65	=65	=65	=65	=65	=65
!	!	!	!	!	!	!	!	!	!	!	!	!	!	!	!	!	!	!	!	!LO:LB:g=original	!
2r	2D\	-sus	.	2F\	-sus	.	2B-X\	-sus	.	2B-X\	-sus	.	1ryy	1ryy	1ryy	1ryy	2r	2r	.	2r	.
!	!	!	!	!	!	!LO:DY:b:problem:f na pięciolinii	!	!	!	!	!	!LO:DY:b:problem:f na pięciolinii	!	!	!	!	!	!	!	!	!
.	.	.	.	.	.	f	.	.	.	.	.	f	.	.	.	.	.	.	.	.	.
*2\right	*	*	*	*	*	*	*	*	*	*	*	*	*	*	*	*	*	*	*	*	*
2D-X\	2D-X\	et	.	2F\	et	.	2Bn\	est	.	2f\	et	.	.	.	.	.	2bn\	2F/	.	2f\	.
=66	=66	=66	=66	=66	=66	=66	=66	=66	=66	=66	=66	=66	=66	=66	=66	=66	=66	=66	=66	=66	=66
!	!	!	!	!LO:LB:g=original	!	!	!	!	!	!	!	!	!	!	!	!	!LO:LB:g=original	!	!	!	!
!LO:TX:a:t=3.	!	!	!	!	!	!	!	!	!	!	!	!LO:DY:b	!	!	!	!	!LO:TX:a:t=3.	!LO:TX:a:t=3.	!	!LO:TX:a:t=3.	!
0r	2r	.	.	2r	.	.	2r	.	.	2r	.	p	1ryy	1ryy	1ryy	1ryy	0r	0r	.	0r	.
.	2C/	se-	.	2G\	se-	.	2c\	se-	.	2e\	se-	.	.	.	.	.	.	.	.	.	.
=67	=67	=67	=67	=67	=67	=67	=67	=67	=67	=67	=67	=67	=67	=67	=67	=67	=67	=67	=67	=67	=67
!	!	!	!	!	!	!	!	!	!LO:DY:b:rj	!	!	!	!	!	!	!	!	!	!	!	!
.	1C	-pul-	.	1A-X	-pul-	.	1A-X	-pul-	p	1f	-pul-	.	1ryy	1ryy	1ryy	1ryy	.	.	.	.	.
=68	=68	=68	=68	=68	=68	=68	=68	=68	=68	=68	=68	=68	=68	=68	=68	=68	=68	=68	=68	=68	=68
1r	1C	-tus	.	1F	-tus	.	1A-X	-tus	.	1Bn	-tus	.	1ryy	1ryy	1ryy	1ryy	1r	1r	.	1r	.
=69	=69	=69	=69	=69	=69	=69	=69	=69	=69	=69	=69	=69	=69	=69	=69	=69	=69	=69	=69	=69	=69
!	!LO:LB:g=original	!	!	!	!	!	!	!	!	!LO:LB:g=original	!	!	!	!	!	!	!	!	!	!	!
2r	2C/	est	.	2E\	est.	.	2G/	est.	.	2c\	est.	.	1ryy	1ryy	1ryy	1ryy	2r	2r	.	2r	.
4r;	4r;	.	.	4r;	.	.	4r;	.	.	4r;	.	.	.	.	.	.	4r;	4r;	.	4r;	.
!	!	!	!	!	!	!	!	!	!	!	!	!LO:DY:b	!	!	!	!	!	!	!	!	!
.	.	.	.	.	.	.	.	.	.	.	.	f	.	.	.	.	.	.	.	.	f
4C\	4C/	et	.	4C/	Et	.	4C/	Et	.	4C/	Et	.	.	.	.	.	4c/	4c/	.	4c/	.
=70	=70	=70	=70	=70	=70	=70	=70	=70	=70	=70	=70	=70	=70	=70	=70	=70	=70	=70	=70	=70	=70
!LO:LB:g=original	!	!	!	!	!	!	!LO:LB:g=original	!	!	!	!	!	!	!	!	!	!	!	!	!	!
!	!	!	!	!	!	!	!	!	!LO:DY:a	!	!	!	!	!	!	!	!	!	!	!	!
4.C\	(4.C/	re-	.	(4.C/	re-	.	(>4.C/	re-	f	(4.C/	re-	.	1ryy	1ryy	1ryy	1ryy	4.c/	4.c/	.	4.c/	.
*8\right	*	*	*	*	*	*	*	*	*	*	*	*	*	*	*	*	*	*	*	*	*
8E\	8E\	.	.	8E\)	.	.	8E/)	.	.	8E/)	.	.	.	.	.	.	8e/	8e\	.	8e/	.
*	*	*	*	*	*	*	*	*	*	*	*	*	*	*	*	*	*	*2\right	*	*	*
2E\	2E\)	-su-	.	2E\	-su-	.	2E/	-su-	.	2E/	-su-	.	.	.	.	.	2e/	2e\	.	2e/	.
=71	=71	=71	=71	=71	=71	=71	=71	=71	=71	=71	=71	=71	=71	=71	=71	=71	=71	=71	=71	=71	=71
4.E\	(4.E\	-re-	.	(4.E\	-re-	.	(>4.E/	-re-	.	(4.E/	-re-	.	1ryy	1ryy	1ryy	1ryy	4.e/	4.e\	.	4.e\	.
8G\	8G\	.	.	8G\)	.	.	8G/)	.	.	8G/)	.	.	.	.	.	.	8g/	8g\	.	8g\	.
2G\	2G\)	-xit	.	2G\	-xit	.	2G/	-xit	.	2G/	-xit	.	.	.	.	.	2g/	2g\	.	2g\	.
=72	=72	=72	=72	=72	=72	=72	=72	=72	=72	=72	=72	=72	=72	=72	=72	=72	=72	=72	=72	=72	=72
1C	4C/	ter-	.	4E\	ter-	.	4G/	ter-	.	4c\	ter-	.	1ryy	1ryy	1ryy	1ryy	1cc	1c	.	1g	.
.	8C/	-ti-	.	8E\	-ti-	.	8G/	-ti-	.	8c\	-ti-	.	.	.	.	.	.	.	.	.	.
.	8C/	-a	.	8E\	-a	.	8G/	-a	.	8c\	-a	.	.	.	.	.	.	.	.	.	.
.	4C/	di-	.	4E\	di-	.	4G/	di-	.	4c\	di-	.	.	.	.	.	.	.	.	.	.
.	8C/	-e	.	8E\	-e	.	8G/	-e	.	8c\	-e	.	.	.	.	.	.	.	.	.	.
.	8C/	se-	.	8E\	se-	.	8G/	se-	.	8c\	se-	.	.	.	.	.	.	.	.	.	.
=73	=73	=73	=73	=73	=73	=73	=73	=73	=73	=73	=73	=73	=73	=73	=73	=73	=73	=73	=73	=73	=73
!	!	!	!	!LO:LB:g=original	!	!	!	!	!	!	!	!	!	!	!	!	!	!LO:LB:g=original	!	!	!
1C	4C/	-cun-	.	4E\	-cun-	.	4G/	-cun-	.	4c\	-cun-	.	1ryy	1ryy	1ryy	1ryy	1cc	1c	.	1g	.
.	8C/	-dum	.	8E\	-dum	.	8G/	-dum	.	8c\	-dum	.	.	.	.	.	.	.	.	.	.
.	8C/	scrip-	.	8E\	scrip-	.	8G/	scrip-	.	8c\	scrip-	.	.	.	.	.	.	.	.	.	.
.	4C/	-tu-	.	4E\	-tu-	.	4G/	-tu-	.	4c\	-tu-	.	.	.	.	.	.	.	.	.	.
.	4C/	-ras	.	4E\	-ras	.	4G/	-ras	.	4c\	-ras	.	.	.	.	.	.	.	.	.	.
=74	=74	=74	=74	=74	=74	=74	=74	=74	=74	=74	=74	=74	=74	=74	=74	=74	=74	=74	=74	=74	=74
!	!LO:LB:g=original	!	!	!	!	!	!	!	!	!	!	!	!	!	!	!	!	!	!	!	!
2C/	4C/	et	.	4G\	et	.	4c\	et	.	4e\	et	.	1ryy	1ryy	1ryy	1ryy	2ee\	2c/	.	2g\	.
.	4C/	as-	.	4G\	aſ-	.	4c\	as-	.	4e\	as-	.	.	.	.	.	.	.	.	.	.
2C/	4C/	-cen-	.	4G\	-cen-	.	4c\	-cen-	.	4e\	-cen-	.	.	.	.	.	2ee\	2c/	.	2g\	.
.	8C/	-dit	.	8G\	-dit	.	8c\	-dit	.	8e\	-dit	.	.	.	.	.	.	.	.	.	.
.	8C/	in	.	8G\	in	.	8c\	in	.	8e\	in	.	.	.	.	.	.	.	.	.	.
=75	=75	=75	=75	=75	=75	=75	=75	=75	=75	=75	=75	=75	=75	=75	=75	=75	=75	=75	=75	=75	=75
!	!	!	!	!	!	!	!	!	!	!LO:LB:g=original	!	!	!	!	!	!	!	!	!	!	!
*rep	*	*	*	*	*	*	*	*	*	*	*	*	*	*	*	*	*	*rep	*	*rep	*
2C/	4C/	cae-	.	4G\	cae-	.	4c\	cae-	.	4e\	Cä-	.	1ryy	1ryy	1ryy	1ryy	2ee\	2c/	.	2g\	.
.	4C/	-lum	.	4G\	-lum	.	4c\	-lum	.	4e\	-lum	.	.	.	.	.	.	.	.	.	.
!	!	!	!	!	!	!	!LO:LB:g=original	!	!	!	!	!	!	!	!	!	!	!	!	!	!
2C/	4C/	se-	.	4G\	se-	.	4c\	se-	.	4e\	se-	.	.	.	.	.	2ee\	2c/	.	2g\	.
.	8C/	-det	.	8G\	-det	.	8c\	-det	.	8e\	-det	.	.	.	.	.	.	.	.	.	.
.	8C/	ad	.	8G\	ad	.	8c\	ad	.	8e\	ad	.	.	.	.	.	.	.	.	.	.
*Xrep	*	*	*	*	*	*	*	*	*	*	*	*	*	*	*	*	*	*Xrep	*	*Xrep	*
=76	=76	=76	=76	=76	=76	=76	=76	=76	=76	=76	=76	=76	=76	=76	=76	=76	=76	=76	=76	=76	=76
2.BB/	2.BB/	dex-	.	2.G\	dex-	.	2.d\	dex-	.	2.f\	dex-	.	1ryy	1ryy	1ryy	1ryy	2.dd\	2.f\	.	2.g\	.
4C/	4BB/	-tram	.	4G\	-tram	.	4c\	-tram	.	4e\	-tram	.	.	.	.	.	4ee\	4e\	.	4g\	.
=77	=77	=77	=77	=77	=77	=77	=77	=77	=77	=77	=77	=77	=77	=77	=77	=77	=77	=77	=77	=77	=77
4G\	2GG/	pat-	.	2G\	pat-	.	2B\	pat-	.	2d\	pat-	.	1ryy	1ryy	1ryy	1ryy	4dd\	4g\	.	4g\	.
8G\L	.	.	.	.	.	.	.	.	.	.	.	.	.	.	.	.	8dd\L	8g\L	.	8g\L	.
8G\J	.	.	.	.	.	.	.	.	.	.	.	.	.	.	.	.	8dd\J	8g\J	.	8g\J	.
4G\	4GG/	-ris	.	4G\	-ris	.	4B\	-ris	.	4d\	-ris	.	.	.	.	.	4dd\	4g\	.	4g\	.
4r	4G\	et	.	4G\	et	.	4B\	et	.	4d\	et	.	.	.	.	.	4r	4r	.	4r	.
=78	=78	=78	=78	=78	=78	=78	=78	=78	=78	=78	=78	=78	=78	=78	=78	=78	=78	=78	=78	=78	=78
!	!	!	!	!	!	!	!	!	!	!	!	!	!	!	!	!	!LO:LB:g=original	!	!	!LO:LB:g=original	!
!LO:TX:a:t=1	!	!	!	!	!	!	!	!	!	!	!	!	!	!	!	!	!	!LO:TX:a:t=1.	!	!	!
1r	4.G\	i-	.	4.G\	i-	.	4.B\	i-	.	4.d\	i-	.	1ryy	1ryy	1ryy	1ryy	1r	1r	.	1r	.
.	8G\	-te-	.	8G\	-te-	.	8B\	-te-	.	8d\	-te-	.	.	.	.	.	.	.	.	.	.
.	4G\	-rum	.	4G\	-rum	.	4B\	-rum	.	4d\	-rum	.	.	.	.	.	.	.	.	.	.
.	4F\	ven-	.	4G\	ven-	.	4B\	ven-	.	4d\	ven-	.	.	.	.	.	.	.	.	.	.
=79	=79	=79	=79	=79	=79	=79	=79	=79	=79	=79	=79	=79	=79	=79	=79	=79	=79	=79	=79	=79	=79
!LO:LB:g=original	!LO:LB:g=original	!	!	!LO:LB:g=original	!	!	!	!	!	!	!	!	!	!	!	!	!	!	!	!	!
4r	4.E\	-tu-	.	4.G#X\	-tu-	.	4.B\	-tu-	.	4.e\	-tu-	.	1ryy	1ryy	1ryy	1ryy	4r	4r	.	4r	.
8E\L	.	.	.	.	.	.	.	.	.	.	.	.	.	.	.	.	8ee\L	8e\L	.	8g#X\L	.
8E\J	8E\	-rus	.	8G#\	-rus	.	8B\	-rus	.	8e\	-rus	.	.	.	.	.	8ee\J	8e\J	.	8g#\J	.
4E\	4E\	est	.	4G#\	est	.	4B\	est	.	4e\	est	.	.	.	.	.	4ee\	4e\	.	4g#\	.
4r	4E\	cum	.	4G#\	cum	.	4B\	cum	.	4e\	cum	.	.	.	.	.	4r	4r	.	4r	.
=80	=80	=80	=80	=80	=80	=80	=80	=80	=80	=80	=80	=80	=80	=80	=80	=80	=80	=80	=80	=80	=80
4r	4.D\	glo-	.	4.Gn\	glo-	.	4.B\	glo-	.	4.f\	glo-	.	1ryy	1ryy	1ryy	1ryy	4r	4r	.	4r	.
8D\L	.	.	.	.	.	.	.	.	.	.	.	.	.	.	.	.	8gg\L	8f\L	.	8gn\L	.
8D\J	8D\	-ri-	.	8G\	-ri-	.	8B\	-ri-	.	8f\	-ri-	.	.	.	.	.	8gg\J	8f\J	.	8g\J	.
4D\	4D\	-a	.	4G\	-a	.	4B\	-a	.	4f\	-a	.	.	.	.	.	4gg\	4f\	.	4g\	.
4r	8D\	ju-	.	8G\	ju-	.	8B\	ju-	.	8f\	ju-	.	.	.	.	.	4r	4r	.	4r	.
.	8D\	-di-	.	8G\	-di-	.	8B\	-di-	.	8f\	-di-	.	.	.	.	.	.	.	.	.	.
=81	=81	=81	=81	=81	=81	=81	=81	=81	=81	=81	=81	=81	=81	=81	=81	=81	=81	=81	=81	=81	=81
!	!	!	!	!	!	!	!LO:LB:g=original	!	!	!LO:LB:g=original	!	!	!	!	!	!	!	!	!	!	!
2C\	2C/	-ca-	.	2G\	-ca-	.	2c\	-ca-	.	2e-X\	-ca-	.	1ryy	1ryy	1ryy	1ryy	[1ee-X	[>1c	.	1g	.
2E-X\	2E-X\	-re	.	2G\	-re	.	2c\	-re	.	2e-\	-re	.	.	.	.	.	.	.	.	.	.
=82	=82	=82	=82	=82	=82	=82	=82	=82	=82	=82	=82	=82	=82	=82	=82	=82	=82	=82	=82	=82	=82
2AA-X/	2AA-X/	vi-	.	2A-X\	vi-	.	2c\	vi-	.	2e-X\	vi-	.	1ryy	1ryy	1ryy	1ryy	2ee-\]	2c/]	.	2a-X\	.
4r	4AA-/	-vos	.	4A-\	-vos	.	4c\	-vos	.	4e-\	-vos	.	.	.	.	.	4r	4r	.	4r	.
!	!	!	!	!	!	!	!	!	!	!	!	!	!	!	!	!	!LO:SIC:s=4ee-:v	!	!	!	!
4AAn/	4AAn/	et	.	4G-X\	et	.	4c\	et	.	4e-\	et	.	.	.	.	.	4eeny\	4c/	.	4f#X\	.
=83	=83	=83	=83	=83	=83	=83	=83	=83	=83	=83	=83	=83	=83	=83	=83	=83	=83	=83	=83	=83	=83
4r	1BB-X	mor-	.	1F	mor-	.	1B-X	mor-	.	[1e-X	mor-	.	1ryy	1ryy	1ryy	1ryy	4r	4r	.	4r	.
4BB-X/	.	.	.	.	.	.	.	.	.	.	.	.	.	.	.	.	4ee-X\	4g\	.	4g\	.
4r	.	.	.	.	.	.	.	.	.	.	.	.	.	.	.	.	4r	4r	.	4r	.
4BB-/	.	.	.	.	.	.	.	.	.	.	.	.	.	.	.	.	4ee-\	4g\	.	4g\	.
=84	=84	=84	=84	=84	=84	=84	=84	=84	=84	=84	=84	=84	=84	=84	=84	=84	=84	=84	=84	=84	=84
!	!	!	!	!	!	!	!	!	!	!	!	!	!	!	!	!	!	!LO:LB:g=original	!	!	!
*rep	*	*	*	*	*	*	*	*	*	*	*	*	*	*	*	*	*	*	*	*	*
4r	1BB-X	-tu-	.	1F	-tu-	.	1B-X	-tu-	.	2e-X\]	.	.	1ryy	1ryy	1ryy	1ryy	4r	4r	.	4r	.
4BB-X/	.	.	.	.	.	.	.	.	.	.	.	.	.	.	.	.	4ee-X\	4g\	.	4g\	.
4r	.	.	.	.	.	.	.	.	.	2d\	-tu-	.	.	.	.	.	4r	4r	.	4r	.
!	!	!	!	!	!	!	!	!	!	!	!	!	!	!	!	!	!	!	!	!LO:SIC:s=4a-:v	!
4BB-/	.	.	.	.	.	.	.	.	.	.	.	.	.	.	.	.	4dd\	4f\	.	4a\	.
*Xrep	*	*	*	*	*	*	*	*	*	*	*	*	*	*	*	*	*	*	*	*	*
=85	=85	=85	=85	=85	=85	=85	=85	=85	=85	=85	=85	=85	=85	=85	=85	=85	=85	=85	=85	=85	=85
!	!LO:LB:g=original	!	!	!	!	!	!	!	!	!	!	!	!	!	!	!	!	!	!	!	!
4E-X\	4E-X\	-os	.	4G\	-os	.	4B-X\	-os	.	4e-X\	-os	.	1ryy	1ryy	1ryy	1ryy	4ee-X\	4g\	.	4g\	.
4r	2E-\	cu-	.	2G\	cu-	.	2B-\	cu-	.	2e-\	cu-	.	.	.	.	.	4r	4r	.	4r	.
2r	.	.	.	.	.	.	.	.	.	.	.	.	.	.	.	.	2r	2r	.	2r	.
.	4E-\	-jus	.	4G\	-jus	.	4B-\	-jus	.	4e-\	-jus	.	.	.	.	.	.	.	.	.	.
=86	=86	=86	=86	=86	=86	=86	=86	=86	=86	=86	=86	=86	=86	=86	=86	=86	=86	=86	=86	=86	=86
!	!	!	!	!LO:LB:g=original	!	!	!	!	!	!	!	!	!	!	!	!	!LO:LB:g=original	!	!	!	!
!LO:TX:a:t=1.	!	!	!	!	!	!	!	!	!	!	!	!	!	!	!	!	!	!LO:TX:a:t=1.	!	!	!
1r	4E-X\	reg-	.	4G\	reg-	.	4B-X\	reg-	.	4e-X\	reg-	.	1ryy	1ryy	1ryy	1ryy	1r	1r	.	1r	.
.	8E-\	-ni	.	8G\	-ni	.	8B-\	-ni	.	8e-\	-ni	.	.	.	.	.	.	.	.	.	.
.	8E-\	non	.	8G\	non	.	8B-\	non	.	8e-\	non	.	.	.	.	.	.	.	.	.	.
.	4E-\	e-	.	4G\	e-	.	4B-\	e-	.	4e-\	e-	.	.	.	.	.	.	.	.	.	.
.	4E-\	-rit	.	4G\	-rit	.	4B-\	-rit	.	4e-\	-rit	.	.	.	.	.	.	.	.	.	.
=87	=87	=87	=87	=87	=87	=87	=87	=87	=87	=87	=87	=87	=87	=87	=87	=87	=87	=87	=87	=87	=87
!LO:LB:g=original	!	!	!	!	!	!	!	!	!	!	!	!	!	!	!	!	!	!	!	!LO:LB:g=original	!
4r	4E-X\	fi-	.	4G\	fi-	.	4B-X\	fi-	.	4e-X\	fi-	.	1ryy	1ryy	1ryy	1ryy	4r	4r	.	4r	.
4E-X\	8E-\	-nis	.	8G\	-nis	.	8B-\	-nis	.	8e-\	-nis	.	.	.	.	.	4ee-X\	4g\	.	4g\	.
.	8r	.	.	8r	.	.	8r	.	.	8r	.	.	.	.	.	.	.	.	.	.	.
4D\	4r	.	.	4r	.	.	4r	.	.	4r	.	.	.	.	.	.	4dd\	4f\	.	4g\	.
4C\	8C/	et	.	8G\	et	.	8c\	et	.	8e-\	et	.	.	.	.	.	4ee-\	4e-X\	.	4g\	.
.	8C/	in	.	8G\	in	.	8c\	in	.	8e-\	in	.	.	.	.	.	.	.	.	.	.
=88	=88	=88	=88	=88	=88	=88	=88	=88	=88	=88	=88	=88	=88	=88	=88	=88	=88	=88	=88	=88	=88
!	!	!	!	!	!	!	!LO:LB:g=original	!	!	!LO:LB:g=original	!	!	!	!	!	!	!	!	!	!	!
4C\	4C/	spi-	.	4G\	spi-	.	4c\	spi-	.	4e-X\	spi-	.	1ryy	1ryy	1ryy	1ryy	4ee-X\	4e-X\	.	4g\	.
4r	8C/	-ri-	.	8G\	-ri-	.	8c\	-ri-	.	8e-\	-ri-	.	.	.	.	.	4r	4r	.	4r	.
.	8C/	-tum	.	8G\	-tum	.	8c\	-tum	.	8e-\	-tum	.	.	.	.	.	.	.	.	.	.
2r	4C/	s[an]-	.	4G\	s[an]-	.	4c\	s[an]-	.	4e-\	s[an]-	.	.	.	.	.	2r	2r	.	2r	.
.	4C/	-ctum	.	4G\	-ctum	.	4c\	-ctum	.	4e-\	-ctum	.	.	.	.	.	.	.	.	.	.
=89	=89	=89	=89	=89	=89	=89	=89	=89	=89	=89	=89	=89	=89	=89	=89	=89	=89	=89	=89	=89	=89
!LO:TX:a:t=2.	!	!	!	!	!	!	!	!	!	!	!	!	!	!	!	!	!LO:TX:a:t=2.	!LO:TX:a:t=2.	!	!LO:TX:a:t=2.	!
0r	4.C/	do-	.	4.G\	Do-	.	4.c\	do-	.	4.e-X\	Do-	.	1ryy	1ryy	1ryy	1ryy	0r	0r	.	0r	.
.	8C/	-mi-	.	8G\	-mi-	.	8c\	-mi-	.	8e-\	-mi-	.	.	.	.	.	.	.	.	.	.
.	4C/	-num	.	4G\	-num	.	4c\	-num	.	4e-\	-num	.	.	.	.	.	.	.	.	.	.
.	8C/	et	.	8G\	et	.	8c\	et	.	8e-\	et	.	.	.	.	.	.	.	.	.	.
.	8C/	vi-	.	8G\	vi-	.	8c\	vi-	.	8e-\	vi-	.	.	.	.	.	.	.	.	.	.
=90	=90	=90	=90	=90	=90	=90	=90	=90	=90	=90	=90	=90	=90	=90	=90	=90	=90	=90	=90	=90	=90
!	!LO:LB:g=original	!	!	!LO:LB:g=original	!	!	!	!	!	!	!	!	!	!	!	!	!	!	!	!	!
.	4.C/	-vi-	.	4G\	-vi-	.	4c\	-vi-	.	4e-X\	-vi-	.	1ryy	1ryy	1ryy	1ryy	.	.	.	.	.
.	.	.	.	4G\	-fi-	.	4c\	-fi-	.	4e-\	-fi-	.	.	.	.	.	.	.	.	.	.
.	8C/	-fi-	.	.	.	.	.	.	.	.	.	.	.	.	.	.	.	.	.	.	.
.	4C/	-can-	.	4G\	-can-	.	4c\	-can-	.	4e-\	-can-	.	.	.	.	.	.	.	.	.	.
.	4C/	-tem	.	4G\	-tem	.	4c\	-tem	.	4e-\	-tum	.	.	.	.	.	.	.	.	.	.
=91	=91	=91	=91	=91	=91	=91	=91	=91	=91	=91	=91	=91	=91	=91	=91	=91	=91	=91	=91	=91	=91
4BB/	4.BB/	qui	.	4.G\	qui	.	4.d\	qui	.	4.f\	qui	.	1ryy	1ryy	1ryy	1ryy	4dd\	4f\	.	4g\	.
4r	.	.	.	.	.	.	.	.	.	.	.	.	.	.	.	.	4r	4r	.	4r	.
.	8BB/	ex	.	8G\	ex	.	8d\	ex	.	8f\	ex	.	.	.	.	.	.	.	.	.	.
4C/	4C/	pat-	.	4G\	pat-	.	4c\	pat-	.	4.e-X\	pat-	.	.	.	.	.	4ee-X\	4e-X\	.	4g\	.
4r	4C/	-re	.	4G\	-re	.	4c\	-re	.	.	.	.	.	.	.	.	4r	4r	.	4r	.
.	.	.	.	.	.	.	.	.	.	8e-\	-re	.	.	.	.	.	.	.	.	.	.
=92	=92	=92	=92	=92	=92	=92	=92	=92	=92	=92	=92	=92	=92	=92	=92	=92	=92	=92	=92	=92	=92
*	*	*	*	*	*	*	*	*	*	*	*	*	*	*	*	*	*	*rep	*	*rep	*
4BB/	4.BB/	fi-	.	4.G\	fi-	.	4.d\	fi-	.	4.f\	fi-	.	1ryy	1ryy	1ryy	1ryy	4dd\	4f\	.	4g\	.
4r	.	.	.	.	.	.	.	.	.	.	.	.	.	.	.	.	4r	4r	.	4r	.
.	8BB/	-li-	.	8G\	-li-	.	8d\	-li-	.	8f\	-li-	.	.	.	.	.	.	.	.	.	.
4C/	4C/	-o-	.	4G\	-o-	.	4c\	-o-	.	4e-X\	-o-	.	.	.	.	.	4ee-X\	4e-X\	.	4g\	.
4r	8C/	-que	.	8G\	-que	.	8c\	-qui	.	8e-\	-que	.	.	.	.	.	4r	4r	.	4r	.
.	8C/	pro-	.	8G\	pro-	.	8c\	pro-	.	8e-\	pro-	.	.	.	.	.	.	.	.	.	.
*	*	*	*	*	*	*	*	*	*	*	*	*	*	*	*	*	*	*Xrep	*	*Xrep	*
=93	=93	=93	=93	=93	=93	=93	=93	=93	=93	=93	=93	=93	=93	=93	=93	=93	=93	=93	=93	=93	=93
!	!	!	!	!	!	!	!LO:LB:g=original	!	!	!LO:LB:g=original	!	!	!	!	!	!	!	!	!	!	!
4r	4G\	-ce-	.	4G\	-ce-	.	4Bn\	-ce-	.	4d\	-ce-	.	1ryy	1ryy	1ryy	1ryy	4r	4r	.	4r	.
2G\	4G\	-dit	.	4G\	-dit,	.	8B\	-dit	.	4d\	-dit,	.	.	.	.	.	2dd\	2g\	.	2g\	.
.	.	.	.	.	.	.	4r	.	.	.	.	.	.	.	.	.	.	.	.	.	.
.	4r	.	.	4r	.	.	.	.	.	4r	.	.	.	.	.	.	.	.	.	.	.
.	.	.	.	.	.	.	8r	.	.	.	.	.	.	.	.	.	.	.	.	.	.
4G\	8G\	qui	.	8G\	qui	.	8B\	qui	.	8d\	qui	.	.	.	.	.	4dd\	4g\	.	4g\	.
.	8G\	cum	.	8G\	cum	.	8B\	cum	.	8d\	cum	.	.	.	.	.	.	.	.	.	.
=94	=94	=94	=94	=94	=94	=94	=94	=94	=94	=94	=94	=94	=94	=94	=94	=94	=94	=94	=94	=94	=94
2C/	(4.C/	pat-	.	(4.G\	pat-	.	(4.c\	pa-	.	(4.en\	pat-	.	1ryy	1ryy	1ryy	1ryy	4.een\	4.g\	.	4.g\	.
.	8C/	-re	.	8F\)	.	.	8B\)	.	.	8d\)	-re	.	.	.	.	.	8dd\	8f\	.	8g\	.
2G\	4C/)	.	.	4E\	-re	.	4G\	-tre	.	4c\	.	.	.	.	.	.	4cc\	4e\	.	4g\	.
.	4G\	et	.	4G\	et	.	4B\	et	.	4d\	et	.	.	.	.	.	4dd\	4g\	.	4g\	.
=95	=95	=95	=95	=95	=95	=95	=95	=95	=95	=95	=95	=95	=95	=95	=95	=95	=95	=95	=95	=95	=95
!	!LO:LB:g=original	!	!	!LO:LB:g=original	!	!	!	!	!	!	!	!	!	!	!	!	!	!	!	!	!
2.C/	4.C/	fi-	.	4.G\	fi-	.	4.c\	fi-	.	4.e\	fi-	.	1ryy	1ryy	1ryy	1ryy	4.ee\	4.g\	.	4.g\	.
.	8C/	-li-	.	8F\	-li-	.	8B\	-li-	.	8d\	-li-	.	.	.	.	.	8dd\	8f\	.	8g\	.
.	4C/	-o	.	4E\	-o	.	4G\	-o	.	4c\	-o	.	.	.	.	.	4cc\	4e\	.	4g\	.
4r	8C/	si-	.	8G\	si-	.	8c\	si-	.	8e\	si-	.	.	.	.	.	4r	4r	.	4r	.
.	8C/	-mul	.	8G\	-mul	.	8c\	-mul	.	8e\	-mul	.	.	.	.	.	.	.	.	.	.
=96	=96	=96	=96	=96	=96	=96	=96	=96	=96	=96	=96	=96	=96	=96	=96	=96	=96	=96	=96	=96	=96
!LO:LB:g=original	!	!	!	!	!	!	!	!	!	!	!	!	!	!	!	!	!LO:LB:g=original	!LO:LB:g=original	!	!LO:LB:g=original	!
1C	2.C/	a-	.	2.A\	a-	.	2.c\	a-	.	2.f\	a-	.	1ryy	1ryy	1ryy	1ryy	2.cc\	1f	.	2.a\	.
.	4C/	-do-	.	4B\	-do-	.	4d\	-do-	.	4f\	-do-	.	.	.	.	.	4dd\	.	.	4f\	.
=97	=97	=97	=97	=97	=97	=97	=97	=97	=97	=97	=97	=97	=97	=97	=97	=97	=97	=97	=97	=97	=97
1C	2C/	-ra-	.	2c\	-ra-	.	2c\	-ra-	.	2e\	-ra-	.	1ryy	1ryy	1ryy	1ryy	1cc	1e	.	1g	.
.	4C/	-tur	.	4G\	-tur	.	4c\	-tur	.	4e\	-tur	.	.	.	.	.	.	.	.	.	.
.	4C/	et	.	4G\	et	.	4c\	et	.	4e\	et	.	.	.	.	.	.	.	.	.	.
=98	=98	=98	=98	=98	=98	=98	=98	=98	=98	=98	=98	=98	=98	=98	=98	=98	=98	=98	=98	=98	=98
1C	4.C/	con-	.	4.A\	con-	.	4.c\	con-	.	4.f\	con-	.	1ryy	1ryy	1ryy	1ryy	2.cc\	1f	.	2.a\	.
.	8C/	-glo-	.	8A\	-glo-	.	8c\	-glo-	.	8f\	-glo-	.	.	.	.	.	.	.	.	.	.
.	4C/	-ri-	.	4B\	-ri-	.	4d\	-ri-	.	4f\	-ri-	.	.	.	.	.	.	.	.	.	.
.	4C/	-fi-	.	4B\	-fi-	.	4d\	-fi-	.	4f\	-fi-	.	.	.	.	.	4dd\	.	.	4f\	.
=99	=99	=99	=99	=99	=99	=99	=99	=99	=99	=99	=99	=99	=99	=99	=99	=99	=99	=99	=99	=99	=99
!	!	!	!	!	!	!	!LO:LB:g=original	!	!	!LO:LB:g=original	!	!	!	!	!	!	!	!	!	!	!
2.C/	4C/	-ca-	.	4c\	-ca-	.	4c\	-ca-	.	4e\	-ca-	.	1ryy	1ryy	1ryy	1ryy	2.ee\	2.c/	.	2.g\	.
.	4C/	-tur	.	4c\	-tur	.	4c\	-tur	.	4e\	-tur	.	.	.	.	.	.	.	.	.	.
.	4C/	qui	.	4G\	qui	.	4c\	qui	.	4e\	qui	.	.	.	.	.	.	.	.	.	.
4r	4C/	lo-	.	4G\	lo-	.	4c\	lo-	.	4e\	lo-	.	.	.	.	.	4r	4r	.	4r	.
=100	=100	=100	=100	=100	=100	=100	=100	=100	=100	=100	=100	=100	=100	=100	=100	=100	=100	=100	=100	=100	=100
4r	4.D\	-cu-	.	4.F\	-cu-	.	4.B\	-cu-	.	4.e\	-cu-	.	1ryy	1ryy	1ryy	1ryy	4r	4r	.	4r	.
4D\	.	.	.	.	.	.	.	.	.	.	.	.	.	.	.	.	4dd\	4f\	.	4f\	.
.	8D\	-tus	.	8F\	-tus	.	8B\	-tus	.	8d\	-tus	.	.	.	.	.	.	.	.	.	.
4D\	4D\	est	.	4F\	est	.	4B\	est	.	4d\	et	.	.	.	.	.	4dd\	4f\	.	4f\	.
4D\	8D\	per	.	8F\	per	.	8B\	per	.	4d\	per	.	.	.	.	.	4dd\	4f\	.	4f\	.
.	8D\	pro-	.	8F\	pro-	.	8B\	pro-	.	.	.	.	.	.	.	.	.	.	.	.	.
=101	=101	=101	=101	=101	=101	=101	=101	=101	=101	=101	=101	=101	=101	=101	=101	=101	=101	=101	=101	=101	=101
!	!LO:LB:g=original	!	!	!LO:LB:g=original	!	!	!	!	!	!	!	!	!	!	!	!	!	!	!	!	!
4E\	1E	-phe-	.	1E	-phe-	.	(2A\	-phe-	.	(2c\	pro-	.	1ryy	1ryy	1ryy	1ryy	4r	4r	.	4r	.
4r	.	.	.	.	.	.	.	.	.	.	.	.	.	.	.	.	4cc\	4e\	.	4e\	.
4E\	.	.	.	.	.	.	2G#X\)	.	.	2B\)	-phe-	.	.	.	.	.	4r	4r	.	4r	.
4r	.	.	.	.	.	.	.	.	.	.	.	.	.	.	.	.	4ee\	4d\	.	4g#X\	.
=102	=102	=102	=102	=102	=102	=102	=102	=102	=102	=102	=102	=102	=102	=102	=102	=102	=102	=102	=102	=102	=102
4AA\	2.AA/	-tas	.	2.C/	-tas.	.	2.A\	-tas.	.	2.A\	-tas	.	1ryy	1ryy	1ryy	1ryy	4ee\	4c/	.	4a\	.
4A\	.	.	.	.	.	.	.	.	.	.	.	.	.	.	.	.	4ee\	4A/	.	4a\	.
4A\	.	.	.	.	.	.	.	.	.	.	.	.	.	.	.	.	4ee\	4A/	.	4a\	.
4A\	4r	.	.	4r	.	.	4r	.	.	4r	.	.	.	.	.	.	4ee\	4A/	.	4a\	.
=103	=103	=103	=103	=103	=103	=103	=103	=103	=103	=103	=103	=103	=103	=103	=103	=103	=103	=103	=103	=103	=103
!	!	!	!	!	!	!	!	!	!	!	!	!	!	!	!	!	!	!	!	!LO:PB:g=original	!
1A	(>4.AA/	Cre-	.	(>4.AA/	Cre-	.	(4.A\	Cre-	.	(4.A\	Cre-	.	1ryy	1ryy	1ryy	1ryy	1ee	1A	.	1a	.
.	8C/)	.	.	8C/)	.	.	8c\)	.	.	8c\)	.	.	.	.	.	.	.	.	.	.	.
.	4C/	-do	.	4C/	-do	.	4c\	-do	.	4c\	-do	.	.	.	.	.	.	.	.	.	.
.	4r	.	.	4r	.	.	4r	.	.	4r	.	.	.	.	.	.	.	.	.	.	.
=104	=104	=104	=104	=104	=104	=104	=104	=104	=104	=104	=104	=104	=104	=104	=104	=104	=104	=104	=104	=104	=104
4A\	4r	.	.	4r	.	.	4r	.	.	4r	.	.	1ryy	1ryy	1ryy	1ryy	4ee\	4A/	.	4a\	.
!	!	!	!	!	!	!	!	!	!	!LO:SIC:s=4e:v	!	!	!	!	!	!	!	!	!	!	!
4r	4E\	in	.	4E\	in	.	4e\	in	.	4f\	in	.	.	.	.	.	4r	4r	.	4r	.
2r	4AA/	u-	.	4AA/	u-	.	4A\	u-	.	4A\	u-	.	.	.	.	.	2r	2r	.	2r	.
.	4C/	-num	.	4C/	-nam	.	4c\	-num	.	4c\	-num	.	.	.	.	.	.	.	.	.	.
=105	=105	=105	=105	=105	=105	=105	=105	=105	=105	=105	=105	=105	=105	=105	=105	=105	=105	=105	=105	=105	=105
!LO:PB:g=original	!	!	!	!	!	!	!	!	!	!	!	!	!	!	!	!	!LO:LB:g=original	!	!	!	!
4r	1E	Sanc-	.	1E	sanc-	.	1G#X	sanc-	.	1B	Sanc-	.	1ryy	1ryy	1ryy	1ryy	4r	4r	.	4r	.
4E\	.	.	.	.	.	.	.	.	.	.	.	.	.	.	.	.	4ee\	4e\	.	4g#X\	.
4E\	.	.	.	.	.	.	.	.	.	.	.	.	.	.	.	.	4ee\	4e\	.	4g#\	.
4E\	.	.	.	.	.	.	.	.	.	.	.	.	.	.	.	.	4ee\	4e\	.	4g#\	.
=106	=106	=106	=106	=106	=106	=106	=106	=106	=106	=106	=106	=106	=106	=106	=106	=106	=106	=106	=106	=106	=106
!	!	!	!	!	!	!	!LO:LB:g=original	!	!	!LO:LB:g=original	!	!	!	!	!	!	!	!	!	!	!
4AA/	4AA/	-tam	.	4E\	-tam	.	4A\	-tum	.	4c\	-tum	.	1ryy	1ryy	1ryy	1ryy	4ee\	4e\	.	4a\	.
4r	4AA/	Ca-	.	4E\	Ca-	.	4A\	Ca-	.	4c\	Ca-	.	.	.	.	.	4r	4r	.	4r	.
!	!LO:SIC:l:s=-tho-:v	!	!	!	!	!	!	!	!	!	!	!	!	!	!	!	!	!	!	!	!
2r	4AA/	-to-	.	4E\	-tho-	.	4A\	-tho-	.	4c\	-tho-	.	.	.	.	.	2r	2r	.	2r	.
.	4AA/	-li-	.	4E\	-li-	.	4A\	-li-	.	4c\	-li-	.	.	.	.	.	.	.	.	.	.
=107	=107	=107	=107	=107	=107	=107	=107	=107	=107	=107	=107	=107	=107	=107	=107	=107	=107	=107	=107	=107	=107
!	!	!	!	!	!	!	!	!	!	!	!	!	!	!	!	!	!	!LO:LB:g=original	!	!	!
*	*	*	*	*	*	*	*	*	*	*	*	*	*	*	*	*	*	*	*	*rep	*
4AA/	4AA/	cam	.	4E\	-cam	.	4A\	-cam	.	4c\	-cam	.	1ryy	1ryy	1ryy	1ryy	4ee\	4c/	.	4a\	.
4r	4AA/	ec-	.	4E\	et	.	4A\	et	.	4c\	et	.	.	.	.	.	4r	4r	.	4r	.
!	!LO:SIC:l:s=-le-:v	!	!	!	!	!	!	!	!	!	!	!	!	!	!	!	!	!	!	!	!
2r	4AA/	-te-	.	4E\	apo-	.	4A\	a-	.	4c\	a-	.	.	.	.	.	2r	2r	.	2r	.
.	4AA/	-siam	.	4E\	-sto-	.	4A\	-po-	.	4c\	-po-	.	.	.	.	.	.	.	.	.	.
*	*	*	*	*	*	*	*	*	*	*	*	*	*	*	*	*	*	*	*	*Xrep	*
=108	=108	=108	=108	=108	=108	=108	=108	=108	=108	=108	=108	=108	=108	=108	=108	=108	=108	=108	=108	=108	=108
!	!	!	!	!LO:LB:g=original	!	!	!	!	!	!	!	!	!	!	!	!	!	!	!	!	!
*	*	*	*	*	*	*	*	*	*	*	*	*	*	*	*	*	*	*rep	*	*rep	*
4AA/	4.AA/	a-	.	[4.E\	.	.	4.A\	-sto-	.	4.c\	-sto-	.	1ryy	1ryy	1ryy	1ryy	4ee\	4c/	.	4a\	.
4r	.	.	.	.	.	.	.	.	.	.	.	.	.	.	.	.	4r	4r	.	4r	.
.	8AA/	-pos-	.	8E\]	.	.	8A\	-li-	.	8c\	-li-	.	.	.	.	.	.	.	.	.	.
2r	4AA/	-to-	.	4E\	-licam,	.	4A\	-cam	.	4c\	-cam	.	.	.	.	.	2r	2r	.	2r	.
.	4AA/	-licam	.	4E\	E-	.	4A\	E-	.	4c\	Ec-	.	.	.	.	.	.	.	.	.	.
*	*	*	*	*	*	*	*	*	*	*	*	*	*	*	*	*	*	*Xrep	*	*Xrep	*
=109	=109	=109	=109	=109	=109	=109	=109	=109	=109	=109	=109	=109	=109	=109	=109	=109	=109	=109	=109	=109	=109
!	!LO:LB:g=original	!	!	!	!	!	!	!	!	!	!	!	!	!	!	!	!	!	!	!	!
!LO:TX:a:t=1	!	!	!	!	!	!	!	!	!	!	!	!	!	!	!	!	!LO:TX:a:t=1.	!LO:TX:a:t=1	!	!	!
1r	2.GG/	Ecle-	.	2.G\	-cle-	.	2.B\	-cle-	.	2.d\	-le-	.	1ryy	1ryy	1ryy	1ryy	1r	1r	.	1r	.
.	4GG/	-si-	.	4G\	-si-	.	4B\	-si-	.	4d\	-si-	.	.	.	.	.	.	.	.	.	.
=110	=110	=110	=110	=110	=110	=110	=110	=110	=110	=110	=110	=110	=110	=110	=110	=110	=110	=110	=110	=110	=110
4r	2GG/	-am	.	2G\	-am,	.	2B\	-am	.	2d\	-am,	.	1ryy	1ryy	1ryy	1ryy	4r	4r	.	4r	.
4GG/	.	.	.	.	.	.	.	.	.	.	.	.	.	.	.	.	4dd\	4g\	.	4g\	.
4GG/	4r	.	.	4r	.	.	4r	.	.	4r	.	.	.	.	.	.	4dd\	4g\	.	4g\	.
4GG/	4G\	Con-	.	4G\	Con-	.	4B\	Con-	.	4d\	Con-	.	.	.	.	.	4dd\	4g\	.	4g\	.
=111	=111	=111	=111	=111	=111	=111	=111	=111	=111	=111	=111	=111	=111	=111	=111	=111	=111	=111	=111	=111	=111
4GG/	4.G\	-fi-	.	4.G\	-fi-	.	4.B\	-fi-	.	4.d\	-fi-	.	1ryy	1ryy	1ryy	1ryy	4dd\	4g\	.	4g\	.
4r	.	.	.	.	.	.	.	.	.	.	.	.	.	.	.	.	4r	4r	.	4r	.
.	8G\	-te-	.	8G\	-te-	.	8B\	-te-	.	8d\	-te-	.	.	.	.	.	.	.	.	.	.
2r	4G\	-or	.	4G\	-or	.	4B\	-or	.	4d\	-or	.	.	.	.	.	2r	2r	.	2r	.
.	4G\	u-	.	4G\	u-	.	4B\	u-	.	4d\	u-	.	.	.	.	.	.	.	.	.	.
=112	=112	=112	=112	=112	=112	=112	=112	=112	=112	=112	=112	=112	=112	=112	=112	=112	=112	=112	=112	=112	=112
!	!	!	!	!	!	!	!LO:LB:g=original	!	!	!	!	!	!	!	!	!	!	!	!	!	!
*rep	*	*	*	*	*	*	*	*	*	*	*	*	*	*	*	*	*	*rep	*	*rep	*
4GG/	4G\	-num	.	4G\	-num	.	4B\	-num	.	4d\	-num	.	1ryy	1ryy	1ryy	1ryy	4dd\	4g\	.	4g\	.
4r	4G\	bap-	.	4G\	bap-	.	4B\	bap-	.	4d\	bap-	.	.	.	.	.	4r	4r	.	4r	.
2r	4G\	-tiſ-	.	4G\	-tiſ-	.	4B\	-tiſ-	.	4d\	-tis-	.	.	.	.	.	2r	2r	.	2r	.
.	4G\	-ma	.	4G\	-ma	.	4B\	-ma	.	4d\	-ma	.	.	.	.	.	.	.	.	.	.
*Xrep	*	*	*	*	*	*	*	*	*	*	*	*	*	*	*	*	*	*Xrep	*	*Xrep	*
=113	=113	=113	=113	=113	=113	=113	=113	=113	=113	=113	=113	=113	=113	=113	=113	=113	=113	=113	=113	=113	=113
!	!	!	!	!	!	!	!	!	!	!LO:LB:g=original	!	!	!	!	!	!	!	!	!	!	!
*rep	*	*	*	*	*	*	*	*	*	*	*	*	*	*	*	*	*	*rep	*	*rep	*
4GG/	4G\	in	.	4G\	in	.	4B\	in	.	4d\	in	.	1ryy	1ryy	1ryy	1ryy	4dd\	4g\	.	4g\	.
4r	4G\	re-	.	4G\	re-	.	4B\	re-	.	4d\	re-	.	.	.	.	.	4r	4r	.	4r	.
2r	4G\	-miſ-	.	4G\	-miſ-	.	4B\	-miſ-	.	4d\	-miſ-	.	.	.	.	.	2r	2r	.	2r	.
.	4G\	-si-	.	4G\	-si-	.	4B\	-si-	.	4d\	-si-	.	.	.	.	.	.	.	.	.	.
*Xrep	*	*	*	*	*	*	*	*	*	*	*	*	*	*	*	*	*	*Xrep	*	*Xrep	*
=114	=114	=114	=114	=114	=114	=114	=114	=114	=114	=114	=114	=114	=114	=114	=114	=114	=114	=114	=114	=114	=114
!	!	!	!	!	!	!	!	!	!	!	!	!	!	!	!	!	!LO:PB:g=original	!	!	!	!
!LO:TX:a:t=1	!	!	!	!	!	!	!	!	!	!	!	!	!	!	!	!	!LO:TX:a:t=1	!LO:TX:a:t=1.	!	!LO:TX:a:t=1	!
1r	4G\	-o-	.	4G\	-o-	.	4B\	-o-	.	4d\	-o-	.	1ryy	1ryy	1ryy	1ryy	1r	1r	.	1r	.
.	4G\	-nem	.	4G\	-nem	.	4B\	-nem	.	4d\	-nem	.	.	.	.	.	.	.	.	.	.
.	4G\	pec-	.	4G\	pe-	.	4B\	pe-	.	4d\	pe-	.	.	.	.	.	.	.	.	.	.
.	4G\	-ca-	.	4G\	-ca-	.	4B\	-ca-	.	4d\	-ca-	.	.	.	.	.	.	.	.	.	.
=115	=115	=115	=115	=115	=115	=115	=115	=115	=115	=115	=115	=115	=115	=115	=115	=115	=115	=115	=115	=115	=115
!	!	!	!	!LO:LB:g=original	!	!	!	!	!	!	!	!	!	!	!	!	!	!	!	!	!
4r	2F\	-to-	.	2A\	-to-	.	2A\	-to-	.	2d\	-to-	.	1ryy	1ryy	1ryy	1ryy	4r	4r	.	4r	.
4F\	.	.	.	.	.	.	.	.	.	.	.	.	.	.	.	.	4dd\	4f\	.	4a\	.
4F\	4F\	-rum	.	4A\	-rum	.	4A\	-rum	.	4d\	-rum,	.	.	.	.	.	4dd\	4f\	.	4a\	.
4F\	8F\	et	.	8A\	et	.	8A\	et	.	8d\	et	.	.	.	.	.	4dd\	4f\	.	4a\	.
.	8F\	ex-	.	8A\	ex-	.	8A\	ex-	.	8d\	ex-	.	.	.	.	.	.	.	.	.	.
=116	=116	=116	=116	=116	=116	=116	=116	=116	=116	=116	=116	=116	=116	=116	=116	=116	=116	=116	=116	=116	=116
!	!LO:LB:g=original	!	!	!	!	!	!	!	!	!	!	!	!	!	!	!	!	!	!	!LO:LB:g=original	!
4F\	4F\	-pec-	.	4A\	-pec-	.	4A\	-pec-	.	4d\	-pec-	.	1ryy	1ryy	1ryy	1ryy	4dd\	4f\	.	4a\	.
4r	4F\	-to	.	4A\	-to	.	4A\	-to	.	4d\	-to	.	.	.	.	.	4r	4r	.	4r	.
4F\	4F\	re-	.	4A\	re-	.	4A\	re-	.	4d\	re-	.	.	.	.	.	4dd\	4f\	.	4a\	.
4r	4F\	-su-	.	4A\	-su-	.	4A\	-su-	.	4d\	-su-	.	.	.	.	.	4r	4r	.	4r	.
=117	=117	=117	=117	=117	=117	=117	=117	=117	=117	=117	=117	=117	=117	=117	=117	=117	=117	=117	=117	=117	=117
!	!	!	!	!	!	!	!LO:PB:g=original	!	!	!	!	!	!	!	!	!	!	!	!	!	!
4E\	4.E\	-rec-	.	4.G#X\	-rec-	.	4.B\	-rec-	.	4.e\	-rec-	.	1ryy	1ryy	1ryy	1ryy	4ee\	4e\	.	4g#X\	.
8E\L	.	.	.	.	.	.	.	.	.	.	.	.	.	.	.	.	8ee\L	8e\L	.	8g#\L	.
8E\J	8E\	-ti-	.	8G#\	-ti-	.	8B\	-ti-	.	8e\	-ti-	.	.	.	.	.	8ee\J	8e\J	.	8g#\J	.
4E\	4E\	-o-	.	4G#\	-o-	.	4B\	-o-	.	4e\	-o-	.	.	.	.	.	4ee\	4e\	.	4g#\	.
4r	4E\	-nem	.	4G#\	-nem	.	4B\	-nem	.	4e\	-nem	.	.	.	.	.	4r	4r	.	4r	.
=118	=118	=118	=118	=118	=118	=118	=118	=118	=118	=118	=118	=118	=118	=118	=118	=118	=118	=118	=118	=118	=118
!LO:LB:g=original	!	!	!	!	!	!	!	!	!	!	!	!	!	!	!	!	!	!LO:PB:g=original	!	!	!
!LO:TX:a:t=2.	!	!	!	!	!	!	!	!	!	!	!	!	!	!	!	!	!LO:TX:a:t=2.	!LO:TX:a:t=2.	!	!LO:TX:a:t=2.	!
0r	(2D\	Mor-	.	2G#X\	mor-	.	(2B\	mor-	.	[1e	mor-	.	1ryy	1ryy	1ryy	1ryy	0r	0r	.	0r	.
.	2C\	.	.	2A\	-tu-	.	2c\	.	.	.	.	.	.	.	.	.	.	.	.	.	.
=119	=119	=119	=119	=119	=119	=119	=119	=119	=119	=119	=119	=119	=119	=119	=119	=119	=119	=119	=119	=119	=119
.	2BB/	.	.	(2G#X\	-o-	.	2d\)	.	.	2e\]	.	.	1ryy	1ryy	1ryy	1ryy	.	.	.	.	.
.	2AA/)	-tu-	.	2A\	.	.	2c\	-tu-	.	2e\	-tu-	.	.	.	.	.	.	.	.	.	.
=120	=120	=120	=120	=120	=120	=120	=120	=120	=120	=120	=120	=120	=120	=120	=120	=120	=120	=120	=120	=120	=120
!	!	!	!	!	!	!	!	!	!	!LO:LB:g=original	!	!	!	!	!	!	!	!	!	!	!
4r	1E	-o-	.	1G#X)	.	.	1B	-o-	.	1e	-o-	.	1ryy	1ryy	1ryy	1ryy	4r	4r	.	4r	.
4E\	.	.	.	.	.	.	.	.	.	.	.	.	.	.	.	.	4ee\	4e\	.	4g#X\	.
4r	.	.	.	.	.	.	.	.	.	.	.	.	.	.	.	.	4r	4r	.	4r	.
4E\	.	.	.	.	.	.	.	.	.	.	.	.	.	.	.	.	4ee\	4e\	.	4g#X\	.
=121	=121	=121	=121	=121	=121	=121	=121	=121	=121	=121	=121	=121	=121	=121	=121	=121	=121	=121	=121	=121	=121
2E\	2E\	-rum	.	2G#X\	-rum,	.	2B\	-rum	.	2e\	-rum	.	1ryy	1ryy	1ryy	1ryy	2ee\	2e\	.	2g#X\	.
2r;	4r;	.	.	4r;	.	.	4r;	.	.	4r;	.	.	.	.	.	.	2r;	2r;	.	4r;	.
!	!LO:TX:b:t=V&colon; S&colon;	!	!	!	!	!	!	!	!	!	!	!	!	!	!	!	!	!	!	!	!
.	4r	.	.	4AA/	et	.	4r	.	.	4A\	et	.	.	.	.	.	.	.	.	4r	.
=122	=122	=122	=122	=122	=122	=122	=122	=122	=122	=122	=122	=122	=122	=122	=122	=122	=122	=122	=122	=122	=122
!	!LO:PB:g=original	!	!	!LO:LB:g=original	!	!	!	!	!	!	!	!	!	!	!	!	!	!	!	!	!
!LO:TX:a:t=3.	!	!	!	!	!	!	!	!	!	!	!	!	!	!	!	!	!LO:TX:a:t=3.	!LO:TX:a:t=3.	!	!LO:TX:a:t=3.	!
0r	2r	.	.	4.AA/	vi-	.	2r	.	.	(4.A\	vi-	.	1ryy	1ryy	1ryy	1ryy	0r	0r	.	0r	.
.	.	.	.	8C/	.	.	.	.	.	8c\)	.	.	.	.	.	.	.	.	.	.	.
.	4r	.	.	4C/	-tam	.	4r	.	.	4c\	-tam	.	.	.	.	.	.	.	.	.	.
.	4AA/	et	.	4C/	et	.	4A\	et	.	4c\	ven-	.	.	.	.	.	.	.	.	.	.
=123	=123	=123	=123	=123	=123	=123	=123	=123	=123	=123	=123	=123	=123	=123	=123	=123	=123	=123	=123	=123	=123
.	(>4.AA/	vi-	.	4.C/	vi-	.	4.A\	vi-	.	(4.c\	-tu-	.	1ryy	1ryy	1ryy	1ryy	.	.	.	.	.
.	8C/)	.	.	8E/	.	.	8c\	-tam	.	8e\)	.	.	.	.	.	.	.	.	.	.	.
.	4C/	-tam	.	4E\	-tam	.	4c\	ven-	.	4e\	-ri	.	.	.	.	.	.	.	.	.	.
.	4C/	ve-	.	4A\	ven-	.	4A\	-tu-	.	4e\	ven-	.	.	.	.	.	.	.	.	.	.
=124	=124	=124	=124	=124	=124	=124	=124	=124	=124	=124	=124	=124	=124	=124	=124	=124	=124	=124	=124	=124	=124
!	!	!	!	!	!	!	!LO:LB:g=original	!	!	!	!	!	!	!	!	!	!	!	!	!	!
1r	(>4.C/	-lu-	.	1A	-tu-	.	[1A	-ri	.	(4.e\	-tu-	.	1ryy	1ryy	1ryy	1ryy	1r	1r	.	1r	.
.	8BB/)	.	.	.	.	.	.	.	.	8d\	.	.	.	.	.	.	.	.	.	.	.
.	4AA/	-ri	.	.	.	.	.	.	.	4c\)	-ri	.	.	.	.	.	.	.	.	.	.
.	4BB/	ven-	.	.	.	.	.	.	.	4d\	ven-	.	.	.	.	.	.	.	.	.	.
=125	=125	=125	=125	=125	=125	=125	=125	=125	=125	=125	=125	=125	=125	=125	=125	=125	=125	=125	=125	=125	=125
4.C/	(4.C/	-tu-	.	1A	-ri	.	1A]	.	.	(4.e\	-tu-	.	1ryy	1ryy	1ryy	1ryy	4.ee\	2.A/	.	2.a\	.
8BB/	8BB/)	.	.	.	.	.	.	.	.	8d\	.	.	.	.	.	.	8dd\	.	.	.	.
4AA/	4AA/	-ri	.	.	.	.	.	.	.	4c\)	-ri	.	.	.	.	.	4cc\	.	.	.	.
4r	8BB/L	.	.	.	.	.	.	.	.	(8d\L	.	.	.	.	.	.	4r	4r	.	4r	.
.	8C/J	.	.	.	.	.	.	.	.	8e\J)	.	.	.	.	.	.	.	.	.	.	.
=126	=126	=126	=126	=126	=126	=126	=126	=126	=126	=126	=126	=126	=126	=126	=126	=126	=126	=126	=126	=126	=126
!	!	!	!	!	!	!	!	!	!	!LO:PB:g=original	!	!	!	!	!	!	!LO:LB:g=original	!	!	!	!
!	!	!	!	!	!	!	!LO:SIC:l:s=sae-:v	!	!	!	!	!	!	!	!	!	!	!	!	!	!
2r	4.D\	Sae-	.	2.A\	sae-	.	2.B\	se-	.	4.f\	sae-	.	1ryy	1ryy	1ryy	1ryy	2r	2r	.	2r	.
.	8D\	-cu-	.	.	.	.	.	.	.	8f\	-cu-	.	.	.	.	.	.	.	.	.	.
2D\	2D\	-li	.	.	.	.	.	.	.	2f\	-li	.	.	.	.	.	2dd\	2f\	.	2a\	.
.	.	.	.	4A\	-cu-	.	4B\	-cu-	.	.	.	.	.	.	.	.	.	.	.	.	.
=127	=127	=127	=127	=127	=127	=127	=127	=127	=127	=127	=127	=127	=127	=127	=127	=127	=127	=127	=127	=127	=127
4r	[1E	a-	.	2A\	-li,	.	2c\	-li,	.	4f\	a-	.	1ryy	1ryy	1ryy	1ryy	4r	4r	.	4r	.
4E\	.	.	.	.	.	.	.	.	.	2e\	.	.	.	.	.	.	4cc\	4e\	.	4a\	.
4r	.	.	.	(2G#X\	A-	.	[2B\	a-	.	.	.	.	.	.	.	.	4r	4r	.	4r	.
4E\	.	.	.	.	.	.	.	.	.	[4d\	.	.	.	.	.	.	4dd\	4e\	.	4g#X\	.
=128	=128	=128	=128	=128	=128	=128	=128	=128	=128	=128	=128	=128	=128	=128	=128	=128	=128	=128	=128	=128	=128
!	!	!	!	!	!	!	!	!	!	!	!	!	!	!	!	!	!	!	!	!LO:LB:g=original	!
*rep	*	*	*	*	*	*	*	*	*	*	*	*	*	*	*	*	*	*rep	*	*	*
4r	1E]	.	.	2A\	.	.	4B\]	.	.	4d\]	.	.	1ryy	1ryy	1ryy	1ryy	4r	4r	.	4r	.
4E\	.	.	.	.	.	.	2A\	.	.	2c\	.	.	.	.	.	.	4cc\	4e\	.	4a\	.
4r	.	.	.	2E\)	.	.	.	.	.	.	.	.	.	.	.	.	4r	4r	.	4r	.
4E\	.	.	.	.	.	.	4G#X\	.	.	4B\	.	.	.	.	.	.	4dd\	4e\	.	4g#X\	.
*Xrep	*	*	*	*	*	*	*	*	*	*	*	*	*	*	*	*	*	*Xrep	*	*	*
=129	=129	=129	=129	=129	=129	=129	=129	=129	=129	=129	=129	=129	=129	=129	=129	=129	=129	=129	=129	=129	=129
!	!	!	!	!LO:LB:g=original	!	!	!	!	!	!	!	!	!	!	!	!	!	!	!	!	!
4AA/	2.AA/	-men	.	2.E\	-men	.	2.A\	-men.	.	2.c\	-men	.	1ryy	1ryy	1ryy	1ryy	4cc\	4e\	.	4a\	.
8AA/L	.	.	.	.	.	.	.	.	.	.	.	.	.	.	.	.	8ee\L	8c/L	.	8a\L	.
8AA/J	.	.	.	.	.	.	.	.	.	.	.	.	.	.	.	.	8ee\J	8c/J	.	8a\J	.
4AA/	.	.	.	.	.	.	.	.	.	.	.	.	.	.	.	.	4ee\	4c/	.	4a\	.
4r	4r	.	.	4AA/	et	.	4r	.	.	4A\	et	.	.	.	.	.	4r	4r	.	4r	.
=130	=130	=130	=130	=130	=130	=130	=130	=130	=130	=130	=130	=130	=130	=130	=130	=130	=130	=130	=130	=130	=130
!	!LO:LB:g=original	!	!	!	!	!	!	!	!	!	!	!	!	!	!	!	!	!	!	!	!
!LO:TX:a:t=3.	!	!	!	!	!	!	!	!	!	!	!	!	!	!	!	!	!LO:TX:a:t=3.	!LO:TX:a:t=3.	!	!LO:TX:a:t=3.	!
0r	2r	.	.	(4.AA/	vi-	.	2r	.	.	(4.A\	vi-	.	1ryy	1ryy	1ryy	1ryy	0r	0r	.	0r	.
.	.	.	.	8C/)	.	.	.	.	.	8c\	.	.	.	.	.	.	.	.	.	.	.
.	4r	.	.	4C/	-tam	.	4r	.	.	4c\)	-tam	.	.	.	.	.	.	.	.	.	.
.	4AA/	et	.	4C/	ven-	.	4A\	et	.	4c\	ven-	.	.	.	.	.	.	.	.	.	.
=131	=131	=131	=131	=131	=131	=131	=131	=131	=131	=131	=131	=131	=131	=131	=131	=131	=131	=131	=131	=131	=131
.	(4.AA/	vi-	.	(4.C/	-tu-	.	(4.A\	vi-	.	(4.c\	-tu-	.	1ryy	1ryy	1ryy	1ryy	.	.	.	.	.
.	8C/)	.	.	8E\)	.	.	8c\	.	.	8e\	.	.	.	.	.	.	.	.	.	.	.
.	4C/	-tam	.	4E\	-ri	.	4c\)	-tam	.	4e\	.	.	.	.	.	.	.	.	.	.	.
.	4C/	ven-	.	4A\	ven-	.	4A\	ven-	.	4e\)	-ri	.	.	.	.	.	.	.	.	.	.
=132	=132	=132	=132	=132	=132	=132	=132	=132	=132	=132	=132	=132	=132	=132	=132	=132	=132	=132	=132	=132	=132
!	!	!	!	!	!	!	!LO:LB:g=original	!	!	!	!	!	!	!	!	!	!	!	!	!	!
1r	(>4.C/	-tu-	.	1A	-tu-	.	1A	-tu-	.	4.e\	sae-	.	1ryy	1ryy	1ryy	1ryy	1r	1r	.	1r	.
.	8BB/	.	.	.	.	.	.	.	.	8d\	-cu-	.	.	.	.	.	.	.	.	.	.
.	4AA/)	-ri	.	.	.	.	.	.	.	4c\	-li	.	.	.	.	.	.	.	.	.	.
.	4BB/	ven-	.	.	.	.	.	.	.	4d\	ven-	.	.	.	.	.	.	.	.	.	.
=133	=133	=133	=133	=133	=133	=133	=133	=133	=133	=133	=133	=133	=133	=133	=133	=133	=133	=133	=133	=133	=133
!	!	!	!	!	!	!	!LO:TX:a:t=P:problem:wysokość niewyraźnie zapisana, w tym miejscu również skreślona nuta	!	!	!	!	!	!	!	!	!	!	!	!	!	!
4.C/	(4.C/	-tu-	.	1A	-ri	.	1A	-ri	.	(4.e\	-tu-	.	1ryy	1ryy	1ryy	1ryy	4.ee\	2A/	.	2a\	.
8BB/	8BB/)	.	.	.	.	.	.	.	.	8d\	.	.	.	.	.	.	8dd\	.	.	.	.
4AA/	4AA/	-ri	.	.	.	.	.	.	.	4c\)	-ri	.	.	.	.	.	4cc\	2r	.	2r	.
4r	8BB/L	Sae-	.	.	.	.	.	.	.	8d\L	.	.	.	.	.	.	4r	.	.	.	.
.	8C/J	.	.	.	.	.	.	.	.	8e\J	.	.	.	.	.	.	.	.	.	.	.
=134	=134	=134	=134	=134	=134	=134	=134	=134	=134	=134	=134	=134	=134	=134	=134	=134	=134	=134	=134	=134	=134
!LO:LB:g=original	!	!	!	!	!	!	!	!	!	!LO:LB:g=original	!	!	!	!	!	!	!	!LO:LB:g=original	!	!	!
2r	4.D\	.	.	2.A\	sae-	.	2.B\	sae-	.	4.f\	sae-	.	1ryy	1ryy	1ryy	1ryy	2r	2r	.	2r	.
.	8D\	-cu-	.	.	.	.	.	.	.	8f\	-cu-	.	.	.	.	.	.	.	.	.	.
2D\	2D\	-li	.	.	.	.	.	.	.	2f\	-li	.	.	.	.	.	2dd\	2f\	.	2a\	.
.	.	.	.	4A\	-cu-	.	4B\	-cu-	.	.	.	.	.	.	.	.	.	.	.	.	.
=135	=135	=135	=135	=135	=135	=135	=135	=135	=135	=135	=135	=135	=135	=135	=135	=135	=135	=135	=135	=135	=135
4E\	1E	a-	.	2A\	-li,	.	2c\	-li	.	4f\	a-	.	1ryy	1ryy	1ryy	1ryy	4r	4r	.	4r	.
4r	.	.	.	.	.	.	.	.	.	2e\	.	.	.	.	.	.	4cc\	4e\	.	4a\	.
4E\	.	.	.	2G#X\	A-	.	[2B\	a-	.	.	.	.	.	.	.	.	4r	4r	.	4ryy	.
4r	.	.	.	.	.	.	.	.	.	4d\	.	.	.	.	.	.	4dd\	4e\	.	4g#X\	.
=136	=136	=136	=136	=136	=136	=136	=136	=136	=136	=136	=136	=136	=136	=136	=136	=136	=136	=136	=136	=136	=136
!	!	!	!	!LO:PB:g=original	!	!	!	!	!	!	!	!	!	!	!	!	!LO:LB:g=original	!	!	!	!
*rep	*	*	*	*	*	*	*	*	*	*	*	*	*	*	*	*	*	*rep	*	*	*
4E\	1E	.	.	2A\	.	.	4B\]	.	.	4d\	.	.	1ryy	1ryy	1ryy	1ryy	4r	4r	.	4r	.
4r	.	.	.	.	.	.	2A\	.	.	2c\	.	.	.	.	.	.	4cc\	4e\	.	4a\	.
4E\	.	.	.	2E\	.	.	.	.	.	.	.	.	.	.	.	.	4r	4r	.	4r	.
4r	.	.	.	.	.	.	4G#X\	.	.	4B\	.	.	.	.	.	.	4dd\	4e\	.	4g#X\	.
*Xrep	*	*	*	*	*	*	*	*	*	*	*	*	*	*	*	*	*	*Xrep	*	*	*
=137	=137	=137	=137	=137	=137	=137	=137	=137	=137	=137	=137	=137	=137	=137	=137	=137	=137	=137	=137	=137	=137
!	!LO:LB:g=original	!	!	!	!	!	!	!	!	!	!	!	!	!	!	!	!	!	!	!	!
2A\	2A\	.	.	1A	.	.	1A	.	.	2c\	-men	.	1ryy	1ryy	1ryy	1ryy	2ee\	1e	.	[1a	.
2G\	2G\	.	.	.	.	.	.	.	.	2c#X\	a-	.	.	.	.	.	2cc#X\	.	.	.	.
=138	=138	=138	=138	=138	=138	=138	=138	=138	=138	=138	=138	=138	=138	=138	=138	=138	=138	=138	=138	=138	=138
!	!	!	!	!	!	!	!	!	!	!	!	!	!	!	!	!	!	!LO:SIC:s=2d:v	!	!	!
2F\	2F\	.	.	1A	.	.	2A\	-men	.	2d\	.	.	1ryy	1ryy	1ryy	1ryy	2dd\	2e\	.	1a]	.
2F#X\	2F#X\	.	.	.	.	.	[2c\	a-	.	2d#X\	.	.	.	.	.	.	2dd#X\	2c/	.	.	.
=139	=139	=139	=139	=139	=139	=139	=139	=139	=139	=139	=139	=139	=139	=139	=139	=139	=139	=139	=139	=139	=139
1E	1E	.	.	2A\	-men	.	2c\]	.	.	2.e\	.	.	1ryy	1ryy	1ryy	1ryy	2.ee\	4A/	.	2.a\	.
.	.	.	.	.	.	.	.	.	.	.	.	.	.	.	.	.	.	4c/	.	.	.
.	.	.	.	2G#X\	a-	.	2B\	.	.	.	.	.	.	.	.	.	.	2e\	.	.	.
.	.	.	.	.	.	.	.	.	.	4dn\	.	.	.	.	.	.	4ddn\	.	.	4g#X\	.
=140	=140	=140	=140	=140	=140	=140	=140	=140	=140	=140	=140	=140	=140	=140	=140	=140	=140	=140	=140	=140	=140
2AA/	2AA/	-men,	.	2A\	-men	.	2A\	-men	.	2.c\	-men	.	1ryy	1ryy	1ryy	1ryy	2cc\	2A/	.	2a\	.
2r	2r	.	.	2r	.	.	2r	.	.	.	.	.	.	.	.	.	2r	2r	.	2r	.
.	.	.	.	.	.	.	.	.	.	4c#X\	a-	.	.	.	.	.	.	.	.	.	.
=141	=141	=141	=141	=141	=141	=141	=141	=141	=141	=141	=141	=141	=141	=141	=141	=141	=141	=141	=141	=141	=141
!	!	!	!	!	!	!	!	!	!	!	!	!	!	!	!	!	!	!	!	!LO:LB:g=original	!
!LO:TX:a:t=1	!	!	!	!	!	!	!	!	!	!	!	!	!	!	!	!	!LO:TX:a:t=1	!LO:TX:a:t=1	!	!LO:TX:a:t=1	!
1r	1D	a-	.	(4.D\	a-	.	(>4.F/	a-	.	1d	.	.	1ryy	1ryy	1ryy	1ryy	1r	1r	.	1r	.
.	.	.	.	8F\)	.	.	8A/)	.	.	.	.	.	.	.	.	.	.	.	.	.	.
.	.	.	.	4F\	-men	.	4A/	-men	.	.	.	.	.	.	.	.	.	.	.	.	.
.	.	.	.	4r	.	.	4r	.	.	.	.	.	.	.	.	.	.	.	.	.	.
=142	=142	=142	=142	=142	=142	=142	=142	=142	=142	=142	=142	=142	=142	=142	=142	=142	=142	=142	=142	=142	=142
!	!	!	!	!	!	!	!LO:LB:g=original	!	!	!	!	!	!	!	!	!	!	!	!	!	!
1AA	1AA	.	.	(2.F\	a-	.	1A	a-	.	2.d\	.	.	1ryy	1ryy	1ryy	1ryy	2.dd\	2r	.	2.f\	.
.	.	.	.	.	.	.	.	.	.	.	.	.	.	.	.	.	.	4r	.	.	.
.	.	.	.	4E\)	.	.	.	.	.	4c#X\	.	.	.	.	.	.	4cc#X\	4A/	.	4e\	.
=143	=143	=143	=143	=143	=143	=143	=143	=143	=143	=143	=143	=143	=143	=143	=143	=143	=143	=143	=143	=143	=143
0AA	0AA	-men.	.	0E	-men.	.	0A	-men.	.	0c#X	-men	.	0ryy	0ryy	0ryy	0ryy	0cc#X	0A	.	0e	.
==	==	==	==	==	==	==	==	==	==	==	==	==	==	==	==	==	==	==	==	==	==
*-	*-	*-	*-	*-	*-	*-	*-	*-	*-	*-	*-	*-	*-	*-	*-	*-	*-	*-	*-	*-	*-
!!!system-decoration: [g1]s7[g2]s12
!!!RDF**kern: > = above
!!!RDF**kern: < = below
!!!AIN: 4 cor 5 empty 2 tenor 1 timpa
!!!ENC: Kamil Watkowski
!!!END: 2020-04-14
!!!ENC: Marta Lawrence
!!!END: 2020-06-18
